!!!!SEGMENT: pl-cz--iii-104_danik-jan-ignac--ad-te-deum.krn
!!!cenid: 17xx:875
!!!COM: Danik, Ján Ignác
!!!COM-rismID: pe30000792
!!!CDT: ~1700-~1799
!!!CNT: Czech
!!!OTL: Ad Te Deum
!!!PDT: 1773
!!!AGN: Sacred
!!!SMS-siglum: PL-CZ
!!!SMS-shelfmark: III-104
!!!SMS-shelfwork: W
!!!SMS-variant: PL-CZ III-104:5-6 (Basso Solo. Ad Te Deum)
!!!SMS-altvar: PL-CZ III-104:3-4 (Basso Solo. Retarda Gradum natura)
!!!NIFC-rismSourceID: 300000096
!!!NIFC-rismChildID: 300000096
!!!NIFC-islandoraID: pl-cz:34133
!!!URL-pdf-islandora: https://repozytorium.nifc.pl/islandora/object/pl-cz%3A34133/datastream/PDF/view
!!!URL-scan:
!!!ONB-nifc:
!!!AIN: 2 bass 1 organ 2 violn
!!!key: G
**kern	**fba	**dynam	**kern	**dynam	**kern	**dynam	**kern	**text	**kern	**text
*part5	*	*part5	*part4	*part4	*part3	*part3	*part2	*part2	*part1	*part1
*staff5	*	*	*staff4	*	*staff3	*	*staff2	*staff2	*staff1	*staff1
*I"Organo.	*	*	*I"Violino 2do	*	*I"Violino Primo.	*	*I"Baſso Solo.	*	*I"Baſso Solo.	*
*I'org	*	*	*I'vl 2	*	*I'vl 1	*	*I'B	*	*I'B	*
*Iorgan	*	*	*Ivioln	*	*Ivioln	*	*Ibass	*	*Ibass	*
*ICklav	*	*	*ICstr	*	*ICstr	*	*ICvox	*	*ICvox	*
*IGcont	*	*	*	*	*	*	*IGsolo	*	*IGsolo	*
*>[A,B,A,C,A,B,A]	*>[A,B,A,C,A,B,A]	*>[A,B,A,C,A,B,A]	*>[A,B,A,C,A,B,A]	*>[A,B,A,C,A,B,A]	*>[A,B,A,C,A,B,A]	*>[A,B,A,C,A,B,A]	*>[A,B,A,C,A,B,A]	*>[A,B,A,C,A,B,A]	*>[A,B,A,C,A,B,A]	*>[A,B,A,C,A,B,A]
*>A	*>A	*>A	*>A	*>A	*>A	*>A	*>A	*>A	*>A	*>A
*clefF4	*	*	*clefG2	*	*clefG2	*	*clefF4	*	*clefF4	*
*k[f#]	*	*	*k[f#]	*	*k[f#]	*	*k[f#]	*	*k[f#]	*
*G:	*	*	*G:	*	*G:	*	*G:	*	*G:	*
*M2/2	*	*	*M2/2	*	*M2/2	*	*M2/2	*	*M2/2	*
*met(c|)	*	*	*met(c|)	*	*met(c|)	*	*met(c|)	*	*met(c|)	*
=1	=1	=1	=1	=1	=1	=1	=1	=1	=1	=1
!LO:TX:a:rj:t=moderatò.	!	!	!LO:TX:a:rj:t=moderato.	!	!LO:TX:a:rj:t=moderato.	!	!LO:TX:a:t=Moderato.	!	!LO:TX:a:rj:t=moderato.	!
!LO:TX:a:rj:t=Alla breve.	!	!	!LO:TX:a:rj:t=Allabreve	!	!LO:TX:a:rj:t=Allabreve.	!	!LO:TX:a:t=Aria	!	!LO:TX:a:rj:t=Allabreve	!
4r	.	.	4r	.	8gg\|	.	00r	.	00r	.
!	!	!	!	!	!LO:TX:b:t=..	!	!	!	!	!
.	.	.	.	.	4g'/	.	.	.	.	.
4G\	.	.	4B/	.	.	.	.	.	.	.
!	!	!	!	!	!LO:TX:b:t=..	!	!	!	!	!
.	.	.	.	.	4g'/	.	.	.	.	.
4G\	.	.	4B/	.	.	.	.	.	.	.
!	!	!	!	!	!LO:TX:b:t=..	!	!	!	!	!
.	.	.	.	.	4g'/	.	.	.	.	.
4G\	.	.	4B/	.	.	.	.	.	.	.
.	.	.	.	.	8g/|	.	.	.	.	.
=2	=2	=2	=2	=2	=2	=2	=2	=2	=2	=2
4r	.	.	4r	.	8aa\	.	.	.	.	.
.	.	.	.	.	4d/	.	.	.	.	.
4F#\	6 3	.	4A/	.	.	.	.	.	.	.
.	.	.	.	.	4d/	.	.	.	.	.
4F#\	.	.	4A/	.	.	.	.	.	.	.
.	.	.	.	.	4d/	.	.	.	.	.
4F#\	.	.	4A/	.	.	.	.	.	.	.
.	.	.	.	.	8d/	.	.	.	.	.
=3	=3	=3	=3	=3	=3	=3	=3	=3	=3	=3
4r	.	.	4r	.	8bb\	.	.	.	.	.
.	.	.	.	.	4g/	.	.	.	.	.
4G\	.	.	4B/	.	.	.	.	.	.	.
.	.	.	.	.	4g/	.	.	.	.	.
4G\	.	.	4B/	.	.	.	.	.	.	.
.	.	.	.	.	4g/	.	.	.	.	.
4G\	.	.	4B/	.	.	.	.	.	.	.
.	.	.	.	.	8g/	.	.	.	.	.
=4	=4	=4	=4	=4	=4	=4	=4	=4	=4	=4
4r	.	.	4r	.	8ccc\	.	.	.	.	.
.	.	.	.	.	4d/	.	.	.	.	.
4D\	7	.	4f#/	.	.	.	.	.	.	.
.	.	.	.	.	4d/	.	.	.	.	.
4F#\	.	.	4a/	.	.	.	.	.	.	.
.	.	.	.	.	4d/	.	.	.	.	.
4D\	.	.	4f#/	.	.	.	.	.	.	.
.	.	.	.	.	8d/	.	.	.	.	.
=5	=5	=5	=5	=5	=5	=5	=5	=5	=5	=5
4GG/	.	.	4.bb\	.	4.ddd\	.	00r	.	00r	.
4G\	.	.	.	.	.	.	.	.	.	.
.	.	.	(16gg\LL	.	16bb\LL	.	.	.	.	.
.	.	.	16bb\JJ)	.	16ddd\JJ	.	.	.	.	.
4F#\	6 3	.	12aa\L	.	12ccc\L	.	.	.	.	.
.	.	.	12ff#\	.	12aa\	.	.	.	.	.
.	.	.	12aa\J	.	12ccc\J	.	.	.	.	.
4G\	.	.	12dd\L	.	12bb\L	.	.	.	.	.
.	.	.	12b\	.	12gg\	.	.	.	.	.
.	.	.	12dd\J	.	12bb\J	.	.	.	.	.
!	!	!	!	!	!LO:LB:g=original	!	!	!	!	!
=6	=6	=6	=6	=6	=6	=6	=6	=6	=6	=6
4D\	7	.	4ccT\	.	4aaT\	.	.	.	.	.
4GG/	.	.	4b\	.	4gg\	.	.	.	.	.
8D/|L	.	.	2r	.	2r	.	.	.	.	.
8C/|	.	.	.	.	.	.	.	.	.	.
8BB/|	.	.	.	.	.	.	.	.	.	.
8AA/|J	.	.	.	.	.	.	.	.	.	.
=7	=7	=7	=7	=7	=7	=7	=7	=7	=7	=7
!	!	!	!	!	!	!LO:DY:a:t=Piano.	!	!	!	!
4GG/	.	.	4r	.	8g/	p	.	.	.	.
.	.	.	.	.	4G/	.	.	.	.	.
!	!	!LO:DY:a:t=pia.	!	!	!	!	!	!	!	!
4G\	.	p	4B/	.	.	.	.	.	.	.
.	.	.	.	.	4G/	.	.	.	.	.
4G\	.	.	4B/	.	.	.	.	.	.	.
.	.	.	.	.	4G/	.	.	.	.	.
4G\	.	.	4B/	.	.	.	.	.	.	.
.	.	.	.	.	8G/	.	.	.	.	.
=8	=8	=8	=8	=8	=8	=8	=8	=8	=8	=8
4r	.	.	4r	.	8a/	.	.	.	.	.
.	.	.	.	.	4d/	.	.	.	.	.
4F#\	6 3	.	4A/	.	.	.	.	.	.	.
.	.	.	.	.	4d/	.	.	.	.	.
4F#\	.	.	4A/	.	.	.	.	.	.	.
.	.	.	.	.	4d/	.	.	.	.	.
4F#\	.	.	4A/	.	.	.	.	.	.	.
.	.	.	.	.	8d/	.	.	.	.	.
!	!	!	!LO:LB:g=original	!	!	!	!	!	!	!
=9	=9	=9	=9	=9	=9	=9	=9	=9	=9	=9
4r	.	.	4r	.	8b\	.	00r	.	00r	.
.	.	.	.	.	4G/	.	.	.	.	.
4G\	.	.	4B/	.	.	.	.	.	.	.
.	.	.	.	.	4G/	.	.	.	.	.
4G\	.	.	4B/	.	.	.	.	.	.	.
.	.	.	.	.	4G/	.	.	.	.	.
4G\	.	.	4B/	.	.	.	.	.	.	.
.	.	.	.	.	8G/	.	.	.	.	.
!LO:LB:g=original	!	!	!	!	!	!	!	!	!	!
=10	=10	=10	=10	=10	=10	=10	=10	=10	=10	=10
4r	.	.	4r	.	8cc\	.	.	.	.	.
.	.	.	.	.	4d/	.	.	.	.	.
4D\	7	.	4f#/	.	.	.	.	.	.	.
.	.	.	.	.	4d/	.	.	.	.	.
4F#\	.	.	4a/	.	.	.	.	.	.	.
.	.	.	.	.	4d/	.	.	.	.	.
4D\	.	.	4f#/	.	.	.	.	.	.	.
.	.	.	.	.	8d/	.	.	.	.	.
=11	=11	=11	=11	=11	=11	=11	=11	=11	=11	=11
4GG/	.	.	4.bt\	.	4.dd\	.	.	.	.	.
!	!	!LO:DY:a:t=for	!	!	!	!	!	!	!	!
4G\	.	f	.	.	.	.	.	.	.	.
.	.	.	(16g/LL	.	(16b\LL	.	.	.	.	.
.	.	.	16b/JJ)	.	16dd\JJ)	.	.	.	.	.
!	!	!	!LO:TUP:b	!	!	!	!	!	!	!
4F#\	6 5	.	12a/L	.	12cc\L	.	.	.	.	.
.	.	.	12f#/	.	12a\	.	.	.	.	.
.	.	.	12a/J	.	12cc\J	.	.	.	.	.
!	!	!	!LO:TUP:b	!	!	!	!	!	!	!
4G\	.	.	12d/L	.	12b\L	.	.	.	.	.
.	.	.	12B/	.	12g\	.	.	.	.	.
.	.	.	12d/J	.	12b\J	.	.	.	.	.
!	!	!	!	!	!LO:LB:g=original	!	!	!	!	!
=12	=12	=12	=12	=12	=12	=12	=12	=12	=12	=12
4D\	7	.	4cT/	.	4aT/	.	.	.	.	.
4GG/	.	.	4B/	.	4g/	.	.	.	.	.
2r	.	.	4AT/	.	4cT/	.	.	.	.	.
.	.	.	4G/	.	4B/	.	.	.	.	.
=13	=13	=13	=13	=13	=13	=13	=13	=13	=13	=13
4GG/	.	.	8d/	.	8b\	.	00r	.	00r	.
.	.	.	4g/	.	4dd\	.	.	.	.	.
4G\	.	.	.	.	.	.	.	.	.	.
.	.	.	8b/	.	8gg\	.	.	.	.	.
4D\	.	.	8dd\	.	8ff#\	.	.	.	.	.
.	.	.	4ff#\	.	4aa\	.	.	.	.	.
4F#\	6 5	.	.	.	.	.	.	.	.	.
.	.	.	8aa\	.	8ccc\	.	.	.	.	.
=14	=14	=14	=14	=14	=14	=14	=14	=14	=14	=14
4G\	.	.	4ggT\	.	4bbt\	.	.	.	.	.
4D\	.	.	4ff#\	.	4aa\	.	.	.	.	.
2r	.	.	(8ff#\L	.	(8aa\L	.	.	.	.	.
!	!	!	!	!	!LO:TX:a:t=P:problem=# above	!	!	!	!	!
.	.	.	8ee\)	.	8ccc#X\)	.	.	.	.	.
.	.	.	(8ee\	.	8ccc#\	.	.	.	.	.
.	.	.	8ff#\J)	.	8ddd\J	.	.	.	.	.
=15	=15	=15	=15	=15	=15	=15	=15	=15	=15	=15
4d\	.	.	8f#/L	.	8a\L	.	.	.	.	.
.	.	.	8f#/	.	8a\	.	.	.	.	.
4d\	.	.	8a/	.	8dd\	.	.	.	.	.
.	.	.	8a/J	.	8dd\J	.	.	.	.	.
!	!	!	!LO:TX:t=P:problem=mixed beam	!	!	!	!	!	!	!
4d\	.	.	8f#/L	.	8a\L	.	.	.	.	.
.	.	.	8f#/	.	8a\	.	.	.	.	.
4d\	.	.	8dd\	.	8ff#\	.	.	.	.	.
.	.	.	8dd\J	.	8ff#\J	.	.	.	.	.
!	!	!	!LO:LB:g=original	!	!	!	!	!	!	!
=16	=16	=16	=16	=16	=16	=16	=16	=16	=16	=16
4D/	.	.	4f#/	.	4a/	.	.	.	.	.
4r	.	.	4ff#\	.	4aa\	.	.	.	.	.
2r	.	.	12ee\L	.	12gg\L	.	.	.	.	.
.	.	.	12ff#\	.	12aa\	.	.	.	.	.
.	.	.	12ee\J	.	12gg\J	.	.	.	.	.
.	.	.	4dd\	.	4ff#\	.	.	.	.	.
=17	=17	=17	=17	=17	=17	=17	=17	=17	=17	=17
4A\	7 #	.	8e/L	.	8g\L	.	00r	.	00r	.
.	.	.	8e/	.	8g\	.	.	.	.	.
4A\	.	.	8g/	.	8cc#X\	.	.	.	.	.
.	.	.	8g/J	.	8cc#\J	.	.	.	.	.
!	!	!	!LO:TX:t=P:problem=mixed beam	!	!LO:LB:g=original	!	!	!	!	!
4A\	.	.	8e/L	.	8g\L	.	.	.	.	.
.	.	.	8e/	.	8g\	.	.	.	.	.
4A\	.	.	8cc#X\	.	8ee\	.	.	.	.	.
.	.	.	8cc#\J	.	8ee\J	.	.	.	.	.
=18	=18	=18	=18	=18	=18	=18	=18	=18	=18	=18
4AA/	.	.	4e/	.	4g/	.	.	.	.	.
4r	.	.	4ee\	.	4gg\	.	.	.	.	.
2r	.	.	12dd\L	.	12ff#\L	.	.	.	.	.
.	.	.	12ee\	.	12gg\	.	.	.	.	.
.	.	.	12dd\J	.	12ff#\J	.	.	.	.	.
.	.	.	4cc#X\	.	4ee\	.	.	.	.	.
=19	=19	=19	=19	=19	=19	=19	=19	=19	=19	=19
4D\	.	.	8d/L	.	8f#/L	.	.	.	.	.
.	.	.	8d/	.	8f#/	.	.	.	.	.
4D\	.	.	8f#/	.	8a/	.	.	.	.	.
.	.	.	8f#/J	.	8a/J	.	.	.	.	.
4D\	.	.	8d/L	.	8f#\L	.	.	.	.	.
.	.	.	8d/	.	8f#\	.	.	.	.	.
4D\	.	.	8a/	.	8dd\	.	.	.	.	.
.	.	.	8a/J	.	8dd\J	.	.	.	.	.
=20	=20	=20	=20	=20	=20	=20	=20	=20	=20	=20
4DD/	.	.	4d/	.	4f#/	.	.	.	.	.
4r	.	.	4a/	.	4ff#\	.	.	.	.	.
!	!	!	!LO:TUP:b	!	!	!	!	!	!	!
2r	.	.	12g/L	.	12ee\L	.	.	.	.	.
.	.	.	12a/	.	12ff#\	.	.	.	.	.
.	.	.	12g/J	.	12ee\J	.	.	.	.	.
.	.	.	4f#/	.	4dd\	.	.	.	.	.
=21	=21	=21	=21	=21	=21	=21	=21	=21	=21	=21
4AA/	7_ #	.	(8cc#X\L	.	(8ee\L	.	00r	.	00r	.
.	.	.	8dd\)	.	8ff#\	.	.	.	.	.
4E\	.	.	(8dd\	.	(8ff#\)	.	.	.	.	.
.	.	.	8ee\J)	.	8gg\J)	.	.	.	.	.
*	*	*	*2\right	*	*2\right	*	*	*	*	*
4C#X/	.	.	2ee\	.	2ggT\	.	.	.	.	.
4AA/	X X	.	.	.	.	.	.	.	.	.
!LO:LB:g=original	!	!	!	!	!	!	!	!	!	!
=22	=22	=22	=22	=22	=22	=22	=22	=22	=22	=22
4D\	.	.	4a/	.	12ff#\L	.	.	.	.	.
.	.	.	.	.	12ee\	.	.	.	.	.
.	.	.	.	.	12dd\J	.	.	.	.	.
4F#\	6	.	4dd\	.	12cc#X\L	.	.	.	.	.
.	.	.	.	.	12b\	.	.	.	.	.
.	.	.	.	.	12a\J	.	.	.	.	.
!	!	!	!LO:LB:g=original	!	!	!	!	!	!	!
4A\	6 4	.	4dd\	.	2eeT\	.	.	.	.	.
4AA/	5 #	.	4cc#X\	.	.	.	.	.	.	.
=23	=23	=23	=23	=23	=23	=23	=23	=23	=23	=23
!	!	!	!LO:SIC:v:s=8qqcc#/	!	!	!	!	!	!	!
.	.	.	8qqcc/	.	.	.	.	.	.	.
4D\	.	.	2dd\	.	2dd\	.	.	.	.	.
8F#\|L	.	.	.	.	.	.	.	.	.	.
8A\|J	.	.	.	.	.	.	.	.	.	.
8d\|L	.	.	2r	.	2r	.	.	.	.	.
8c\|	.	.	.	.	.	.	.	.	.	.
8B\|	.	.	.	.	.	.	.	.	.	.
8A\|J	.	.	.	.	.	.	.	.	.	.
!	!	!	!	!	!LO:LB:g=original	!	!	!	!	!
=24	=24	=24	=24	=24	=24	=24	=24	=24	=24	=24
4G\	.	.	4r	.	8gg\	.	.	.	.	.
.	.	.	.	.	4g/	.	.	.	.	.
4G\	.	.	4B/	.	.	.	.	.	.	.
.	.	.	.	.	4g/	.	.	.	.	.
4G\	.	.	4B/	.	.	.	.	.	.	.
.	.	.	.	.	4g/	.	.	.	.	.
4G\	.	.	4B/	.	.	.	.	.	.	.
.	.	.	.	.	8g/	.	.	.	.	.
=25	=25	=25	=25	=25	=25	=25	=25	=25	=25	=25
4r	.	.	4r	.	8aa\	.	00r	.	00r	.
.	.	.	.	.	4d/	.	.	.	.	.
4F#\	6 3	.	4A/	.	.	.	.	.	.	.
.	.	.	.	.	4d/	.	.	.	.	.
4F#\	.	.	4A/	.	.	.	.	.	.	.
.	.	.	.	.	4d/	.	.	.	.	.
4F#\	.	.	4A/	.	.	.	.	.	.	.
.	.	.	.	.	8d/	.	.	.	.	.
=26	=26	=26	=26	=26	=26	=26	=26	=26	=26	=26
4r	.	.	4r	.	8bb\	.	.	.	.	.
.	.	.	.	.	4g/	.	.	.	.	.
4G\	.	.	4B/	.	.	.	.	.	.	.
.	.	.	.	.	4g/	.	.	.	.	.
4G\	.	.	4B/	.	.	.	.	.	.	.
.	.	.	.	.	4g/	.	.	.	.	.
4G\	.	.	4B/	.	.	.	.	.	.	.
.	.	.	.	.	8g/	.	.	.	.	.
=27	=27	=27	=27	=27	=27	=27	=27	=27	=27	=27
4r	.	.	4r	.	8ccc\	.	.	.	.	.
.	.	.	.	.	4d/	.	.	.	.	.
4D\	7	.	4f#/	.	.	.	.	.	.	.
.	.	.	.	.	4d/	.	.	.	.	.
4F#\	.	.	4a/	.	.	.	.	.	.	.
.	.	.	.	.	4d/	.	.	.	.	.
4D\	.	.	4f#/	.	.	.	.	.	.	.
.	.	.	.	.	8d/	.	.	.	.	.
=28	=28	=28	=28	=28	=28	=28	=28	=28	=28	=28
4G\	n7	.	4b\	.	8ddd\	.	.	.	.	.
.	.	.	.	.	4bb\	.	.	.	.	.
4G\	.	.	4b\	.	.	.	.	.	.	.
.	.	.	.	.	4gg\	.	.	.	.	.
4G\	.	.	4b\	.	.	.	.	.	.	.
.	.	.	.	.	4ffn\	.	.	.	.	.
4G\	.	.	4b\	.	.	.	.	.	.	.
.	.	.	.	.	8dd\	.	.	.	.	.
=29	=29	=29	=29	=29	=29	=29	=29	=29	=29	=29
!	!	!	!LO:TUP:b	!	!	!	!	!	!	!
4c\	.	.	12g/L	.	12ee\L	.	00r	.	00r	.
.	.	.	12fn/	.	12dd\	.	.	.	.	.
.	.	.	12e/J	.	12cc\J	.	.	.	.	.
!	!	!	!LO:TUP:b	!	!	!	!	!	!	!
4G\	n7	.	12d/L	.	12b\L	.	.	.	.	.
.	.	.	12e/	.	12cc\	.	.	.	.	.
.	.	.	12f/J	.	12dd\J	.	.	.	.	.
8C/L	.	.	4e/	.	4cc\	.	.	.	.	.
8D/	.	.	.	.	.	.	.	.	.	.
8C/	.	.	4r	.	4r	.	.	.	.	.
8BB/J	6\	.	.	.	.	.	.	.	.	.
=30	=30	=30	=30	=30	=30	=30	=30	=30	=30	=30
4AA/	#	.	4r	.	8aa\	.	.	.	.	.
.	.	.	.	.	4a/	.	.	.	.	.
4A\	.	.	4c#X/	.	.	.	.	.	.	.
.	.	.	.	.	4a/	.	.	.	.	.
4A\	.	.	4c#/	.	.	.	.	.	.	.
.	.	.	.	.	4a/	.	.	.	.	.
4A\	.	.	4c#/	.	.	.	.	.	.	.
.	.	.	.	.	8a/	.	.	.	.	.
!	!	!	!LO:LB:g=original	!	!LO:LB:g=original	!	!	!	!	!
=31	=31	=31	=31	=31	=31	=31	=31	=31	=31	=31
4r	.	.	4r	.	8bb\	.	.	.	.	.
.	.	.	.	.	4e/	.	.	.	.	.
4G#X\	6 3	.	4B/	.	.	.	.	.	.	.
.	.	.	.	.	4e/	.	.	.	.	.
4G#\	.	.	4B/	.	.	.	.	.	.	.
.	.	.	.	.	4e/	.	.	.	.	.
4G#\	.	.	4B/	.	.	.	.	.	.	.
.	.	.	.	.	8e/	.	.	.	.	.
!LO:LB:g=original	!	!	!	!	!	!	!	!	!	!
=32	=32	=32	=32	=32	=32	=32	=32	=32	=32	=32
4r	.	.	4r	.	8ccc#X\	.	.	.	.	.
.	.	.	.	.	4a/	.	.	.	.	.
4A\	#	.	4c#X/	.	.	.	.	.	.	.
.	.	.	.	.	4a/	.	.	.	.	.
4A\	.	.	4c#/	.	.	.	.	.	.	.
.	.	.	.	.	4a/	.	.	.	.	.
4A\	.	.	4c#/	.	.	.	.	.	.	.
.	.	.	.	.	8a/	.	.	.	.	.
=33	=33	=33	=33	=33	=33	=33	=33	=33	=33	=33
4r	.	.	4r	.	8ddd\	.	00r	.	00r	.
.	.	.	.	.	4e/	.	.	.	.	.
4E\	7 #	.	4g#X/	.	.	.	.	.	.	.
.	.	.	.	.	4e/	.	.	.	.	.
4G#X\	.	.	4b\	.	.	.	.	.	.	.
.	.	.	.	.	4e/	.	.	.	.	.
4E\	.	.	4g#/	.	.	.	.	.	.	.
.	.	.	.	.	8e/	.	.	.	.	.
=34	=34	=34	=34	=34	=34	=34	=34	=34	=34	=34
4A\	#	.	4cc#X\	.	8eee\	.	.	.	.	.
.	.	.	.	.	4ccc#X\	.	.	.	.	.
4A\	.	.	4cc#\	.	.	.	.	.	.	.
.	.	.	.	.	4aa\	.	.	.	.	.
4A\	.	.	4cc#\	.	.	.	.	.	.	.
.	.	.	.	.	4gg\	.	.	.	.	.
4A\	.	.	4cc#\	.	.	.	.	.	.	.
.	.	.	.	.	8ee\	.	.	.	.	.
=35	=35	=35	=35	=35	=35	=35	=35	=35	=35	=35
!	!	!	!LO:TUP:b	!	!	!	!	!	!	!
4d\	.	.	12a/L	.	12ff#\L	.	.	.	.	.
.	.	.	12g/	.	12ee\	.	.	.	.	.
.	.	.	12f#/J	.	12dd\J	.	.	.	.	.
!	!	!	!LO:TUP:b	!	!	!	!	!	!	!
4A\	7 #	.	12e/L	.	12cc#X\L	.	.	.	.	.
.	.	.	12f#/	.	12dd\	.	.	.	.	.
.	.	.	12g/J	.	12ee\J	.	.	.	.	.
4D/	.	.	4f#/	.	4dd\	.	.	.	.	.
4r	.	.	4r	.	(8dd\L	.	.	.	.	.
.	.	.	.	.	8dd#X\J)	.	.	.	.	.
=36	=36	=36	=36	=36	=36	=36	=36	=36	=36	=36
4Cn/	.	.	4ee\	.	12ee\L	.	.	.	.	.
.	.	.	.	.	12ff#\	.	.	.	.	.
.	.	.	.	.	12gg\	.	.	.	.	.
4c\	.	.	4ee\	.	12aa\	.	.	.	.	.
.	.	.	.	.	12bb\	.	.	.	.	.
.	.	.	.	.	12ccc\J	.	.	.	.	.
4B\	6 3	.	4dd\	.	12dd\L	.	.	.	.	.
.	.	.	.	.	12ee\	.	.	.	.	.
.	.	.	.	.	12ff#\	.	.	.	.	.
4B\	.	.	4dd\	.	12gg\	.	.	.	.	.
.	.	.	.	.	12aa\	.	.	.	.	.
.	.	.	.	.	12bb\J	.	.	.	.	.
!	!	!	!	!	!LO:LB:g=original	!	!	!	!	!
=37	=37	=37	=37	=37	=37	=37	=37	=37	=37	=37
4A\	.	.	4cc\	.	12cc\L	.	00r	.	00r	.
.	.	.	.	.	12dd\	.	.	.	.	.
.	.	.	.	.	12ee\	.	.	.	.	.
4A\	.	.	4cc\	.	12ff#\	.	.	.	.	.
.	.	.	.	.	12gg\	.	.	.	.	.
.	.	.	.	.	12aa\J	.	.	.	.	.
4G\	.	.	4b\	.	12b\L	.	.	.	.	.
.	.	.	.	.	12cc\	.	.	.	.	.
.	.	.	.	.	12dd\	.	.	.	.	.
4G\	.	.	4b\	.	12ee\	.	.	.	.	.
.	.	.	.	.	12ff#\	.	.	.	.	.
.	.	.	.	.	12gg\J	.	.	.	.	.
=38	=38	=38	=38	=38	=38	=38	=38	=38	=38	=38
4D\	.	.	4f#/	.	12ff#\L	.	.	.	.	.
.	.	.	.	.	12aa\	.	.	.	.	.
.	.	.	.	.	12gg\	.	.	.	.	.
4D\	.	.	4f#/	.	12ff#\	.	.	.	.	.
.	.	.	.	.	12ee\	.	.	.	.	.
.	.	.	.	.	12dd\J	.	.	.	.	.
4F#\	6 5	.	4a\	.	2cccT\	.	.	.	.	.
4F#\	.	.	4a\	.	.	.	.	.	.	.
!	!	!	!LO:LB:g=original	!	!	!	!	!	!	!
=39	=39	=39	=39	=39	=39	=39	=39	=39	=39	=39
*	*	*	*	*	*Xbrackettup	*	*	*	*	*
!	!	!	!	!	!LO:TUP:r=4	!	!	!	!	!
4G\	.	.	12dd\L	.	12bb\L	.	.	.	.	.
.	.	.	12cc\	.	12aa\	.	.	.	.	.
.	.	.	12b\J	.	12gg\	.	.	.	.	.
4c\	.	.	12ee\L	.	12ccc\	.	.	.	.	.
.	.	.	12dd\	.	12bb\	.	.	.	.	.
.	.	.	12cc\J	.	12aa\J	.	.	.	.	.
4d\	.	.	4b\	.	4gg\	.	.	.	.	.
4D\	.	.	4a/	.	4ff#\	.	.	.	.	.
=40	=40	=40	=40	=40	=40	=40	=40	=40	=40	=40
4G\	.	.	4g/	.	4gg\	.	.	.	.	.
8E\|L	.	.	8e/L	.	8e/L	.	.	.	.	.
8E\|J	.	.	8e/J	.	8e/J	.	.	.	.	.
8C/|L	.	.	8c/L	.	8c/L	.	.	.	.	.
8C/|	.	.	8c/	.	8c/	.	.	.	.	.
8C#X/|	.	.	8c#X/	.	8c#X/	.	.	.	.	.
8C#/|J	.	.	8c#/J	.	8c#/J	.	.	.	.	.
=41	=41	=41	=41	=41	=41	=41	=41	=41	=41	=41
8D\|L	.	.	8d/L	.	8d/L	.	0r	.	0r	.
8D\|	.	.	8d/	.	8d/	.	.	.	.	.
8E\|	.	.	8e/	.	8e/	.	.	.	.	.
8E\|J	.	.	8e/J	.	8e/J	.	.	.	.	.
8Cn\|L	.	.	8cn/L	.	8cn/L	.	.	.	.	.
8C\|	.	.	8c/	.	8c/	.	.	.	.	.
8D\|	.	.	8d/	.	8d/	.	.	.	.	.
8D\|J	.	.	8d/J	.	8d/J	.	.	.	.	.
!LO:LB:g=original	!	!	!	!	!	!	!	!	!	!
=42	=42	=42	=42	=42	=42	=42	=42	=42	=42	=42
*	*	*	*	*	*^	*	*	*	*	*
!LO:TX:t=P:problem=mixed beam	!	!	!	!	!	!	!	!	!	!	!
8GG/L	.	.	4d 4B/	.	4gg 4b 4d/	2.ryy	.	.	.	.	.
8G\|	.	.	.	.	.	.	.	.	.	.	.
8D\|	.	.	4d 4B/	.	4gg 4b 4d/	.	.	.	.	.	.
8BB\|J	.	.	.	.	.	.	.	.	.	.	.
4GG/	.	.	4d 4B/	.	4gg 4b 4d/	.	.	.	.	.	.
!	!	!	!	!	!LO:TX:a:t=P:problem=podwójna kreska taktowa	!	!	!	!	!	!
4r;;	.	.	4r	.	4r;;	4r;yy	.	.	.	.	.
*	*	*	*	*	*v	*v	*	*	*	*	*
!	!	!	!	!	!LO:LB:g=original	!	!	!	!	!
=43	=43	=43	=43	=43	=43	=43	=43	=43	=43	=43
*>B	*>B	*>B	*>B	*>B	*>B	*>B	*>B	*>B	*>B	*>B
!	!	!LO:DY:t=Piano.	!	!LO:DY:rj:t=Piano.	!	!LO:DY:t=Piano.	!	!	!	!
4r	.	p	4r	p	4r	p	1G	Re-	1G	Ad
4G\	.	.	4B/	.	4g/	.	.	.	.	.
4G\	.	.	4B/	.	4g/	.	.	.	.	.
4G\	.	.	4B/	.	4g/	.	.	.	.	.
=44	=44	=44	=44	=44	=44	=44	=44	=44	=44	=44
4r	.	.	4r	.	4r	.	1A	-tar-	1A	Te
4F#\	6 3	.	4d/	.	4a/	.	.	.	.	.
4F#\	.	.	4d/	.	4a/	.	.	.	.	.
4F#\	.	.	4d/	.	4a/	.	.	.	.	.
=45	=45	=45	=45	=45	=45	=45	=45	=45	=45	=45
4r	.	.	4r	.	4r	.	1B	-da	1B	De-
4G\	.	.	4d/	.	4b\	.	.	.	.	.
4G\	.	.	4d/	.	4b\	.	.	.	.	.
4G\	.	.	4d/	.	4b\	.	.	.	.	.
!	!	!	!LO:LB:g=original	!	!	!	!	!	!	!
=46	=46	=46	=46	=46	=46	=46	=46	=46	=46	=46
4r	.	.	4r	.	4r	.	1c	Gra-	1c	-um
4D\	.	.	4f#/	.	4cc\	.	.	.	.	.
4F#\	.	.	4a/	.	4cc\	.	.	.	.	.
4D\	.	.	4f#/	.	4cc\	.	.	.	.	.
=47	=47	=47	=47	=47	=47	=47	=47	=47	=47	=47
4G\	.	.	4.b\	.	4.dd\	.	4.dT\	.	4.dT\	sem-
4BB/	6	.	.	.	.	.	.	.	.	.
.	.	.	(16a\LL	.	(16cc\LL	.	16c\LL	.	(16c\LL	.
.	.	.	16b\JJ)	.	16dd\JJ)	.	16d\JJ	.	16d\JJ)	.
!	!	!	!	!	!	!	!LO:TX:a:t=P:global:problem=oddech jako rozdzielacz słów	!	!	!
4C/	.	.	4cc\	.	4ee\	.	4e,<\	-dum	4e\	.
4E\	6	.	4B/	.	4g/	.	4G\	na-	4G\	-per
!	!	!	!	!	!	!	!LO:LB:g=original	!	!	!
=48	=48	=48	=48	=48	=48	=48	=48	=48	=48	=48
4D\	7	.	4A/	.	4f#Xt/	.	4F#\	-tu-	4F#\	cla-
4GG/	.	.	4B/	.	4g/	.	4G\	-ra	4G\	-mo,
!	!	!	!	!LO:DY:a:t=f&colon;	!	!LO:DY:a:t=for	!	!	!	!
2r	.	.	(8d/L	f	(8b/L	f	2r	.	2r	.
.	.	.	8c/)	.	8a/)	.	.	.	.	.
.	.	.	(8c/	.	(8a/	.	.	.	.	.
.	.	.	8B/J)	.	8g/J)	.	.	.	.	.
!	!	!	!	!	!	!	!	!	!LO:LB:g=original	!
=49	=49	=49	=49	=49	=49	=49	=49	=49	=49	=49
!	!	!	!	!LO:DY:a:t=pia.	!	!	!	!	!	!
4r	.	.	4r	p	4r	.	1GG	nam	1GG	Te
4G\	.	.	4B/	.	4G/	.	.	.	.	.
4G\	.	.	4B/	.	4G/	.	.	.	.	.
4G\	.	.	4B/	.	4G/	.	.	.	.	.
=50	=50	=50	=50	=50	=50	=50	=50	=50	=50	=50
4r	.	.	4r	.	4r	.	1AA	fruc-	1AA	qve
4F#\	6 3	.	4d/	.	4A/	.	.	.	.	.
4F#\	.	.	4d/	.	4A/	.	.	.	.	.
4F#\	.	.	4d/	.	4A/	.	.	.	.	.
!	!	!	!	!	!LO:LB:g=original	!	!	!	!	!
=51	=51	=51	=51	=51	=51	=51	=51	=51	=51	=51
4r	.	.	4r	.	4r	.	1BB	-tum	1BB	in-
4G\	.	.	4d/	.	4B/	.	.	.	.	.
4G\	.	.	4d/	.	4B/	.	.	.	.	.
4G\	.	.	4d/	.	4B/	.	.	.	.	.
=52	=52	=52	=52	=52	=52	=52	=52	=52	=52	=52
4r	.	.	4r	.	4r	.	1C	est	1C	-ceſ-
4D\	7	.	4f#/	.	4c/	.	.	.	.	.
4D\	.	.	4f#/	.	4c/	.	.	.	.	.
4D\	.	.	4f#/	.	4c/	.	.	.	.	.
!LO:LB:g=original	!	!	!	!	!	!	!	!	!	!
=53	=53	=53	=53	=53	=53	=53	=53	=53	=53	=53
4G\	.	.	8G/	.	8B/	.	8BB/	pro-	8BB/	-san-
.	.	.	4B/	.	4d/	.	4D\	.	4D\	.
4G\	.	.	.	.	.	.	.	.	.	.
.	.	.	8d/	.	8g/	.	8G\	.	8G\	.
4D\	7	.	8d/	.	8f#/	.	8F#\	.	8F#\	-ter
.	.	.	4f#/	.	4a/	.	4A\	.	4A\	.
4F#\	.	.	.	.	.	.	.	.	.	.
.	.	.	8a/	.	8cc\	.	8c\	-duc-	8c\	.
!	!	!	!LO:LB:g=original	!	!	!	!	!	!	!
=54	=54	=54	=54	=54	=54	=54	=54	=54	=54	=54
4G\	.	.	4gT/	.	4bt\	.	4B\	-tu-	4Bt\	amo,
4D\	.	.	4f#/	.	4a/	.	4A\	-ra	4A\	.
!	!	!	!	!LO:DY:a:t=for	!	!LO:DY:a:rj:t=for.	!	!	!	!
2r	.	.	(8f#/L	f	(8a\L	f	2r	.	2r	.
.	.	.	8e/)	.	8cc#X\)	.	.	.	.	.
.	.	.	(8e/	.	(8cc#\	.	.	.	.	.
.	.	.	8f#/J)	.	8dd\J)	.	.	.	.	.
=55	=55	=55	=55	=55	=55	=55	=55	=55	=55	=55
*	*	*	*	*	*	*	*2\right	*	*2\right	*
!	!	!	!	!LO:DY:a:t=p&colon;	!	!LO:DY:a:t=pia.	!	!	!	!
4D\	.	.	4f#/	p	4a/	p	2A\	Gra-	2A\	nam
4F#\	6	.	4f#/	.	4a/	.	.	.	.	.
4A\	7 #	.	4e/	.	4g/	.	2G\	-ti[[a]]-	2G\	tu
4AA/	.	.	4e/	.	4g/	.	.	.	.	.
!	!	!	!	!	!	!	!LO:LB:g=original	!	!	!
=56	=56	=56	=56	=56	=56	=56	=56	=56	=56	=56
4D\	.	.	4d/	.	4f#/	.	(16F#\KL	-a	(16F#\KL	me
.	.	.	.	.	.	.	8.D\)	.	8.D\)	.
4r	.	.	4d/	.	4f#/	.	(16A\K	.	(16A\K	.
.	.	.	.	.	.	.	8.F#\J)	.	8.F#\J)	.
2r	.	.	4d/	.	4f#/	.	(16d\KL	.	(16d\KL	.
.	.	.	.	.	.	.	8.A\)	.	8.A\)	.
.	.	.	4d/	.	4f#/	.	(16G\K	.	(16G\K	.
.	.	.	.	.	.	.	8.F#\J)	.	8.F#\J)	.
!	!	!	!	!	!	!	!	!	!LO:LB:g=original	!
=57	=57	=57	=57	=57	=57	=57	=57	=57	=57	=57
4AA/	7 #	.	4e/	.	4g/	.	2G\	in	2G\	pri-
4C#X/	.	.	4e/	.	4g/	.	.	.	.	.
4D\	.	.	4d/	.	4f#/	.	4.F#\	Ma-	2F#\	-us
4DD/	.	.	4d/	.	4f#/	.	.	.	.	.
.	.	.	.	.	.	.	8F#\	-ri-	.	.
!	!	!	!	!	!LO:LB:g=original	!	!	!	!	!
=58	=58	=58	=58	=58	=58	=58	=58	=58	=58	=58
4AA/	#	.	4c#X/	.	4e/	.	16E\KL	-a	(16E\KL	a-
.	.	.	.	.	.	.	8.C#X\	.	8.C#X\)	.
4r	.	.	4c#/	.	4e/	.	16G\K	.	(16G\K	.
.	.	.	.	.	.	.	8.E\J	.	8.E\J)	.
2r	.	.	4c#/	.	4e/	.	16e\KL	=	(16e\KL	.
!	!	!	!	!	!	!	!LO:SIC:v:s=8.c#\	!	!LO:SIC:v:s=8.c#\)	!
.	.	.	.	.	.	.	8.c\	.	8.c\)	.
.	.	.	4c#/	.	4e/	.	16A\K	.	(16A\K	.
.	.	.	.	.	.	.	8.G\J	=	8.G\J)	.
=59	=59	=59	=59	=59	=59	=59	=59	=59	=59	=59
4D\	.	.	4A/	.	4f#/	.	2F#\	in	2F#\	.
4F#\	6	.	4A/	.	4f#/	.	.	.	.	.
4A\	4	.	4G/	.	4e/	.	2E\	Ma-	2E\	.
4AA/	7 #	.	4G/	.	4e/	.	.	.	.	.
=60	=60	=60	=60	=60	=60	=60	=60	=60	=60	=60
4D\	.	.	4d/	.	4d/	.	16D/KL	.	(16D/KL	.
.	.	.	.	.	.	.	8.AA/	.	8.AA/)	.
2r	.	.	4d/	.	4f#/	.	16F#/K	.	(16F#/K	.
.	.	.	.	.	.	.	8.D/J	.	8.D/J)	.
!	!	!	!	!	!	!	!LO:LB:g=original	!	!	!
.	.	.	4d/	.	4f#/	.	16A\KL	.	(16A\KL	.
.	.	.	.	.	.	.	8.F#\	.	8.F#\)	.
4D\	.	.	4d/	.	4f#/	.	16d\K	.	(16d\K	.
.	.	.	.	.	.	.	8.F#\J	.	8.F#\J)	.
=61	=61	=61	=61	=61	=61	=61	=61	=61	=61	=61
4A\	4	.	4d/	.	4f#/	.	4F#\	-ri-	4F#t\	-ma-
4AA/	#	.	4c#X/	.	4e/	.	4E\	-a	4E\	-sti,
!	!	!	!	!LO:DY:a:t=f&colon;	!	!LO:DY:a:t=for.	!	!	!	!
2r	.	.	(8c#/L	f	(8e/L	f	2r	.	2r	.
.	.	.	8B/)	.	8d/)	.	.	.	.	.
.	.	.	(8B/	.	(8d/	.	.	.	.	.
.	.	.	8A/J)	.	8c#X/J)	.	.	.	.	.
=62	=62	=62	=62	=62	=62	=62	=62	=62	=62	=62
!	!	!	!	!LO:DY:a:t=pia.	!	!LO:DY:a:t=pia.	!	!	!	!
4AA/	7 #	.	4r	p	4r	p	2G\	E-	1GT	qvan-
4E\	.	.	4e/	.	4g/	.	.	.	.	.
4C#X/	.	.	4e/	.	4g/	.	2G\	-va-	.	.
4AA/	.	.	4e/	.	4g/	.	.	.	.	.
!	!	!	!LO:LB:g=original	!	!	!	!	!	!	!
=63	=63	=63	=63	=63	=63	=63	=63	=63	=63	=63
4D\	.	.	4d/	.	4f#/	.	16F#\KL	la-	(16F#\KL	-do
.	.	.	.	.	.	.	8.D\	.	8.D\)	.
4r	.	.	4r	.	4r	.	16G\K	.	(16G\K	.
.	.	.	.	.	.	.	8.E\J	.	8.E\J)	.
!	!	!	!	!	!	!	!	!	!LO:LB:g=original	!
2r	.	.	2r	.	2r	.	16A\KL	.	(16A\KL	.
.	.	.	.	.	.	.	8.F#\	.	8.F#\)	.
.	.	.	.	.	.	.	16E\K	-bem	(16E\K	.
.	.	.	.	.	.	.	8.D\J	.	8.D\J)	.
=64	=64	=64	=64	=64	=64	=64	=64	=64	=64	=64
!LO:TX:a:t=P:problem=takty 64-65 zapisane repetycją	!	!	!	!	!LO:TX:a:t=P:problem=takty 64-65 zapisane repetycją	!	!	!	!	!
4AA/yy	7 #	.	4r	.	4ryy	.	2G\	tul-	1G	me
4E\yy	.	.	4e/	.	4g/yy	.	.	.	.	.
4C#X/yy	.	.	4e/	.	4g/yy	.	2G\	-it	.	.
4AA/yy	.	.	4e/	.	4g/yy	.	.	.	.	.
=65	=65	=65	=65	=65	=65	=65	=65	=65	=65	=65
*	*	*	*	*	*	*	*Xtuplet	*	*	*
4D\yy	.	.	4d/	.	4f#/yy	.	12F#\L	ae-	12F#\L	a
.	.	.	.	.	.	.	12E\	.	12E\	.
.	.	.	.	.	.	.	12D\J	.	12D\J	.
!	!	!	!	!	!	!	!LO:LB:g=original	!	!	!
4ryy	.	.	4r	.	4ryy	.	12G\L	.	12G\L	.
.	.	.	.	.	.	.	12F#\	.	12F#\	.
.	.	.	.	.	.	.	12E\J	.	12E\J	.
2ryy	.	.	2r	.	2ryy	.	12A\L	.	12A\L	.
.	.	.	.	.	.	.	12G\	.	12G\	.
.	.	.	.	.	.	.	12F#\J	.	12F#\J	.
.	.	.	.	.	.	.	8E\L	-vo	(8E\L	.
.	.	.	.	.	.	.	8D\J	.	8D\J)	.
=66	=66	=66	=66	=66	=66	=66	=66	=66	=66	=66
*	*	*	*Xtuplet	*	*	*	*	*	*	*
4r	.	.	12g/L	.	12b\L	.	12B\L	abs	12B\L	Mor-
.	.	.	12a/	.	12cc#X\	.	12c#X\	.	12c#X\	.
.	.	.	12b/J	.	12dd\J	.	(12d\J	.	12d\J	.
.	.	.	8qqa/	.	8qqcc#/	.	.	.	.	.
4GG/	.	.	2g/	.	2b\	.	2B\)	qve	2B\	.
4G\	.	.	.	.	.	.	.	.	.	.
4D\	5 3	.	4f#/	.	4a/	.	4A\	.	4A\	-te
!LO:LB:g=original	!	!	!	!	!	!	!	!	!	!
=67	=67	=67	=67	=67	=67	=67	=67	=67	=67	=67
*	*	*	*tuplet	*	*Xtuplet	*	*	*	*	*
!	!	!	!LO:TUP:b	!	!	!	!	!	!	!
4r	.	.	12e/L	.	12g/L	.	12G\L	ru-	12G\L	li-
.	.	.	12f#/	.	12a/	.	12A\	.	12A\	.
.	.	.	12g/J	.	12b/J	.	12B\J	.	12B\J	.
.	.	.	8qqf#/	.	8qqa/	.	.	.	.	.
4E\	6\ 3	.	2e/	.	2g/	.	2G\	.	2G\	.
4C#X/	.	.	.	.	.	.	.	.	.	.
4D\	.	.	4d/	.	4f#/	.	4F#\	-ga	4F#\	-be-
!	!	!	!	!	!LO:LB:g=original	!	!	!	!	!
=68	=68	=68	=68	=68	=68	=68	=68	=68	=68	=68
*	*	*	*	*	*tuplet	*	*	*	*	*
!	!	!	!LO:TUP:b	!	!LO:TUP:b	!	!	!	!	!
4r	.	.	12c#X/L	.	12e/L	.	12E\L	Si-	12E\L	-ra-
.	.	.	12d/	.	12f#/	.	12F#\	.	12F#\	.
.	.	.	12e/J	.	12g/J	.	12G\J	.	12G\J	.
.	.	.	8qqd/	.	8qqf#/	.	.	.	8qqF#/	.
4AA/	7 #	.	2c#/	.	2e/	.	2E\	.	2E\	.
4C#X/	.	.	.	.	.	.	.	.	.	.
4D\	.	.	4B/	.	4d/	.	4D\	-ne	4D\	.
!	!	!	!	!	!	!	!LO:LB:g=original	!	!LO:LB:g=original	!
=69	=69	=69	=69	=69	=69	=69	=69	=69	=69	=69
.	.	.	.	.	.	.	.	.	8qqD/	.
4A\	#	.	2A/	.	2c#X/	.	4D/	nae-	2C#X/	-sti,
4AA/	.	.	.	.	.	.	4C#X/	-vo	.	.
!	!	!	!	!LO:DY:a:t=for.	!	!LO:DY:a:t=for.	!	!	!	!
2r	.	.	(8c#X/L	f	(8e/L	f	2r	.	2r	.
.	.	.	8B/)	.	8g#X/)	.	.	.	.	.
.	.	.	(8B/	.	(8g#/	.	.	.	.	.
.	.	.	8c#/J)	.	8a/J)	.	.	.	.	.
=70	=70	=70	=70	=70	=70	=70	=70	=70	=70	=70
4AA/	.	.	4r	.	4r	.	1GG	E-	1GG	et
4r	.	.	4G/	.	4c#X/	.	.	.	.	.
2r	.	.	4G/	.	4c#/	.	.	.	.	.
.	.	.	4G/	.	4c#/	.	.	.	.	.
=71	=71	=71	=71	=71	=71	=71	=71	=71	=71	=71
4AA/	.	.	4r	.	4r	.	1C#X	-va	1C#X	per
4r	.	.	4c#X/	.	4e/	.	.	.	.	.
2r	.	.	4c#/	.	4e/	.	.	.	.	.
.	.	.	4c#/	.	4e/	.	.	.	.	.
!	!	!	!LO:LB:g=original	!	!	!	!	!	!	!
=72	=72	=72	=72	=72	=72	=72	=72	=72	=72	=72
!LO:TX:a:t=P:problem=takty 72-73 zapisane repetycją	!	!	!	!	!	!	!	!	!	!
4AA/yy	.	.	4r	.	4r	.	1E	la-	1E	Sanc-
4ryy	.	.	4e/	.	4g/	.	.	.	.	.
2ryy	.	.	4e/	.	4g/	.	.	.	.	.
.	.	.	4e/	.	4g/	.	.	.	.	.
=73	=73	=73	=73	=73	=73	=73	=73	=73	=73	=73
4AA/yy	.	.	4r	.	4r	.	1G	-bem	1G	-tam
4ryy	.	.	4g/	.	4cc#X\	.	.	.	.	.
2ryy	.	.	4g/	.	4cc#\	.	.	.	.	.
.	.	.	4g/	.	4cc#\	.	.	.	.	.
=74	=74	=74	=74	=74	=74	=74	=74	=74	=74	=74
.	.	.	.	.	.	.	8qqG/	.	8qqG/	.
4D\	.	.	4f#/	.	4dd\	.	4F#\	tu-	4F#\	Cru-
4r	.	.	(8e/L	.	4a/	.	8E\L	-lit	(8E\L	-cem
.	.	.	8f#/J)	.	.	.	8F#\J	.	8F#\J)	.
.	.	.	.	.	.	.	8qqA/	.	8qqA/	.
4G\	.	.	4g/	.	4b\	.	4G\	ae-	4G\	re-
4r	.	.	(8f#/L	.	(8a/L	.	8F#\L	-vo	(8F#\L	-de-
.	.	.	8e/J)	.	8g/J)	.	8E\J	.	8E\J)	.
=75	=75	=75	=75	=75	=75	=75	=75	=75	=75	=75
4A\	6 4	.	2d/	.	4f#/	.	2D\	abs	2DT\	-mi-
4G\	.	.	.	.	4dd\	.	.	.	.	.
4A\	5 #	.	2eT/	.	4dd\	.	2E\	qve	2E\	-ſti,
4AA/	.	.	.	.	4cc#X\	.	.	.	.	.
!	!	!	!	!	!	!	!LO:LB:g=original	!	!	!
=76	=76	=76	=76	=76	=76	=76	=76	=76	=76	=76
4D\	.	.	4f#/	.	4dd\	.	8F#\L	ru-	(8F#\L	et
.	.	.	.	.	.	.	8d\J	.	8d\J)	.
!	!	!	!LO:TUP:b	!	!LO:TUP:b	!	!	!	!	!
4GG/	.	.	12g/L	.	12b/L	.	8B\L	-ga	12B\L	sal-
.	.	.	12f#/	.	12a/	.	.	.	12A\	.
.	.	.	.	.	.	.	8G\J	.	.	.
.	.	.	12e/J	.	12g/J	.	.	.	12G\J	.
4AA/	5 4	.	4d/	.	4f#/	.	4F#\	Si-	4F#\	-va-
4AA/	x #	.	4c#X/	.	4e/	.	4E\	-ne	4E\	-sti,
!	!	!	!	!	!LO:LB:g=original	!	!	!	!LO:LB:g=original	!
=77	=77	=77	=77	=77	=77	=77	=77	=77	=77	=77
4D\	.	.	4d/	.	4d/	.	4D/	nae-	4D/	non
8B\|L	.	.	8b\L	.	8b\L	.	4B\	-vo	4B\	ceſ-
8B\|J	.	.	8b\J	.	8b\J	.	.	.	.	.
8G\|L	.	.	8g/L	.	8g/L	.	4G\	Con-	4G\	-sa-
8G\|	.	.	8g/	.	8g/	.	.	.	.	.
8G#X\|	.	.	8g#X/	.	8g#X/	.	4G#X\	-ci-	4G#X\	-bo
8G#\|J	.	.	8g#/J	.	8g#/J	.	.	.	.	.
=78	=78	=78	=78	=78	=78	=78	=78	=78	=78	=78
8A\|L	.	.	8a/L	.	8a/L	.	4A\	-pi-	4A\	te
8A\|	.	.	8a/	.	8a/	.	.	.	.	.
8B\|	.	.	8b/	.	8b/	.	8B\	-tur	4B\	a-
8B\|J	.	.	8b/J	.	8b/J	.	8B\	Ma-	.	.
8Gn\|L	.	.	8gn/L	.	8gn/L	.	(4Gn\	-ri-	(4Gn\	-ma-
8G\|	.	.	8g/	.	8g/	.	.	.	.	.
8A\|	.	.	8a/	.	8a/	.	4A\)	.	4A\)	.
8A\|J	.	.	8a/J	.	8a/J	.	.	.	.	.
!LO:LB:g=original	!	!	!LO:LB:g=original	!	!	!	!	!	!	!
=79	=79	=79	=79	=79	=79	=79	=79	=79	=79	=79
!	!	!LO:DY:t=Fortě.	!	!LO:DY:t=Fortě.	!	!LO:DY:t=Fortě.	!	!	!	!
4D\	.	f	4r	f	8dd\	f	2D\	-a	2D/	-re,
.	.	.	.	.	4d/	.	.	.	.	.
4D\	.	.	4f#/	.	.	.	.	.	.	.
.	.	.	.	.	4d/	.	.	.	.	.
4D\	.	.	4f#/	.	.	.	2r	.	2r	.
.	.	.	.	.	4d/	.	.	.	.	.
4D\	.	.	4f#/	.	.	.	.	.	.	.
.	.	.	.	.	8d/	.	.	.	.	.
=80	=80	=80	=80	=80	=80	=80	=80	=80	=80	=80
4r	.	.	4r	.	8ee\	.	00r	.	00r	.
.	.	.	.	.	4A/	.	.	.	.	.
4C#X/	6 3	.	4e/	.	.	.	.	.	.	.
.	.	.	.	.	4A/	.	.	.	.	.
4C#/	.	.	4e/	.	.	.	.	.	.	.
.	.	.	.	.	4A/	.	.	.	.	.
4C#/	.	.	4e/	.	.	.	.	.	.	.
.	.	.	.	.	8A/	.	.	.	.	.
=81	=81	=81	=81	=81	=81	=81	=81	=81	=81	=81
4r	.	.	4r	.	8ff#\	.	.	.	.	.
.	.	.	.	.	4d/	.	.	.	.	.
4D\	.	.	4f#/	.	.	.	.	.	.	.
.	.	.	.	.	4d/	.	.	.	.	.
4D\	.	.	4f#/	.	.	.	.	.	.	.
.	.	.	.	.	4d/	.	.	.	.	.
4D\	.	.	4f#/	.	.	.	.	.	.	.
.	.	.	.	.	8d/	.	.	.	.	.
=82	=82	=82	=82	=82	=82	=82	=82	=82	=82	=82
4r	.	.	4r	.	8gg\	.	.	.	.	.
.	.	.	.	.	4A/	.	.	.	.	.
4AA/	7	.	4c#X/	.	.	.	.	.	.	.
.	.	.	.	.	4A/	.	.	.	.	.
4C#X/	.	.	4e/	.	.	.	.	.	.	.
.	.	.	.	.	4A/	.	.	.	.	.
4AA/	.	.	4c#/	.	.	.	.	.	.	.
.	.	.	.	.	8A/	.	.	.	.	.
!	!	!	!	!	!LO:LB:g=original	!	!	!	!	!
=83	=83	=83	=83	=83	=83	=83	=83	=83	=83	=83
4D\	.	.	4.ff#t\	.	4.aa\	.	.	.	.	.
4D\	.	.	.	.	.	.	.	.	.	.
.	.	.	(16dd\LL	.	(16ff#\LL	.	.	.	.	.
.	.	.	16ff#\JJ)	.	16aa\JJ)	.	.	.	.	.
4C#X/	6 5	.	12ee\L	.	12gg\L	.	.	.	.	.
.	.	.	12cc#X\	.	12ee\	.	.	.	.	.
.	.	.	12ee\J	.	12gg\J	.	.	.	.	.
!	!	!	!LO:TUP:b	!	!	!	!	!	!	!
4D\	.	.	12a/L	.	12ff#\L	.	.	.	.	.
.	.	.	12f#/	.	12dd\	.	.	.	.	.
.	.	.	12a/J	.	12ff#\J	.	.	.	.	.
=84	=84	=84	=84	=84	=84	=84	=84	=84	=84	=84
4AA/	7 #	.	4gT/	.	4eeT\	.	00r	.	00r	.
4D\	.	.	4f#/	.	4dd\	.	.	.	.	.
!	!	!	!	!	!	!LO:DY:a:t=for	!	!	!	!
2r	.	.	(8d/L	.	(8f#/L	f	.	.	.	.
.	.	.	8e/)	.	8g/)	.	.	.	.	.
.	.	.	(8e/	.	(8g/	.	.	.	.	.
.	.	.	8f#/J)	.	8a/J)	.	.	.	.	.
=85	=85	=85	=85	=85	=85	=85	=85	=85	=85	=85
!	!	!	!	!LO:DY:t=p.	!	!LO:DY:a:t=p&colon;	!	!	!	!
4D\	.	.	4.f#/	p	4.a/	p	.	.	.	.
4D\	.	.	.	.	.	.	.	.	.	.
.	.	.	(16d/LL	.	(16f#/LL	.	.	.	.	.
.	.	.	16f#/JJ	.	16a/JJ	.	.	.	.	.
*	*	*	*Xtuplet	*	*	*	*	*	*	*
!	!	!	!	!	!LO:TUP:b	!	!	!	!	!
4C#X/	6 3	.	12e/L)	.	12g/L)	.	.	.	.	.
.	.	.	12c#X/	.	12e/	.	.	.	.	.
.	.	.	12e/J	.	12g/J	.	.	.	.	.
*	*	*	*tuplet	*	*	*	*	*	*	*
!	!	!	!LO:TUP:b	!	!LO:TUP:b	!	!	!	!	!
4D\	.	.	12d/L	.	12f#/L	.	.	.	.	.
.	.	.	12A/	.	12d/	.	.	.	.	.
.	.	.	12d/J	.	12f#/J	.	.	.	.	.
!	!	!	!LO:LB:g=original	!	!	!	!	!	!	!
=86	=86	=86	=86	=86	=86	=86	=86	=86	=86	=86
.	.	.	.	.	8qqf#/	.	.	.	.	.
4AA/	7 #	.	4c#X/	.	4eT/	.	.	.	.	.
4D\	.	.	4d/	.	4d/	.	.	.	.	.
8F#\L	6_ 3_	.	4r	.	4r	.	.	.	.	.
8A\	.	.	.	.	.	.	.	.	.	.
!	!	!	!	!	!LO:TX:b:i:t=volti citiſ&colon;	!	!	!	!	!
8F#\	.	.	4f#/	.	4a/	.	.	.	.	.
8D\J	X X	.	.	.	.	.	.	.	.	.
!	!	!	!	!	!LO:PB:g=original	!	!	!	!	!
=87	=87	=87	=87	=87	=87	=87	=87	=87	=87	=87
!	!	!	!LO:TX:t=P:problem=mixed beam	!	!	!	!	!	!	!
4G\	.	.	8d/L	.	8b\L	.	.	.	.	.
.	.	.	8d/	.	8b\	.	.	.	.	.
4G\	.	.	8b\	.	8dd\	.	.	.	.	.
.	.	.	8b\J	.	8dd\J	.	.	.	.	.
!	!	!	!LO:TX:t=P:problem=mixed beam	!	!	!	!	!	!	!
4G\	.	.	8d/L	.	8b\L	.	.	.	.	.
.	.	.	8d/	.	8b\	.	.	.	.	.
4G\	.	.	8dd\	.	8gg\	.	.	.	.	.
.	.	.	8dd\J	.	8gg\J	.	.	.	.	.
=88	=88	=88	=88	=88	=88	=88	=88	=88	=88	=88
4GG/	.	.	4d/	.	4b\	.	00r	.	00r	.
4r	.	.	4d/	.	4b\	.	.	.	.	.
!	!	!	!LO:TUP:b	!	!LO:TUP:b	!	!	!	!	!
2r	.	.	12c/L	.	12a/L	.	.	.	.	.
.	.	.	12d/	.	12b/	.	.	.	.	.
.	.	.	12c/J	.	12a/J	.	.	.	.	.
.	.	.	4B/	.	4g/	.	.	.	.	.
=89	=89	=89	=89	=89	=89	=89	=89	=89	=89	=89
4D\	.	.	8f#/L	.	8a\L	.	.	.	.	.
.	.	.	8f#/	.	8a\	.	.	.	.	.
4D\	.	.	8a/	.	8dd\	.	.	.	.	.
.	.	.	8a/J	.	8dd\J	.	.	.	.	.
!	!	!	!LO:TX:t=P:problem=mixed beam	!	!	!	!	!	!	!
4D\	.	.	8f#/L	.	8a\L	.	.	.	.	.
.	.	.	8f#/	.	8a\	.	.	.	.	.
4D\	.	.	8dd\	.	8ff#\	.	.	.	.	.
.	.	.	8dd\J	.	8ff#\J	.	.	.	.	.
!LO:LB:g=original	!	!	!	!	!	!	!	!	!	!
=90	=90	=90	=90	=90	=90	=90	=90	=90	=90	=90
4DD/	.	.	4f#/	.	4a/	.	.	.	.	.
4r	.	.	4f#/	.	4a/	.	.	.	.	.
!	!	!	!LO:TUP:b	!	!LO:TUP:b	!	!	!	!	!
2r	.	.	12e/L	.	12g/L	.	.	.	.	.
.	.	.	12f#/	.	12a/	.	.	.	.	.
.	.	.	12e/J	.	12g/J	.	.	.	.	.
.	.	.	4d/	.	4f#/	.	.	.	.	.
=91	=91	=91	=91	=91	=91	=91	=91	=91	=91	=91
4A\	7 #	.	8e/L	.	8g\L	.	.	.	.	.
.	.	.	8e/	.	8g\	.	.	.	.	.
4A\	.	.	8g/	.	8cc#X\	.	.	.	.	.
.	.	.	8g/J	.	8cc#\J	.	.	.	.	.
4A\	.	.	8e/L	.	8g\L	.	.	.	.	.
.	.	.	8e/	.	8g\	.	.	.	.	.
4A\	.	.	8cc#X/	.	8ee\	.	.	.	.	.
.	.	.	8cc#/J	.	8ee\J	.	.	.	.	.
!	!	!	!LO:LB:g=original	!	!	!	!	!	!	!
=92	=92	=92	=92	=92	=92	=92	=92	=92	=92	=92
4AA/	.	.	4e/	.	4g/	.	00r	.	00r	.
4r	.	.	4e/	.	4g/	.	.	.	.	.
*	*	*	*Xtuplet	*	*	*	*	*	*	*
!	!	!	!	!	!LO:TUP:b	!	!	!	!	!
2r	.	.	12d/L	.	12f#/L	.	.	.	.	.
.	.	.	12e/	.	12g/	.	.	.	.	.
.	.	.	12d/J	.	12f#/J	.	.	.	.	.
.	.	.	4c#X/	.	4e/	.	.	.	.	.
!	!	!	!	!	!LO:LB:g=original	!	!	!	!	!
=93	=93	=93	=93	=93	=93	=93	=93	=93	=93	=93
4D\	.	.	8d/	.	8f#/	.	.	.	.	.
.	.	.	4f#/	.	4a/	.	.	.	.	.
4D\	.	.	.	.	.	.	.	.	.	.
.	.	.	8a/	.	8dd\	.	.	.	.	.
4AA/	6 5 #	.	8a/	.	8cc#X\	.	.	.	.	.
.	.	.	4cc#X\	.	4ee\	.	.	.	.	.
4C#X/	.	.	.	.	.	.	.	.	.	.
.	.	.	8ee\	.	8gg\	.	.	.	.	.
=94	=94	=94	=94	=94	=94	=94	=94	=94	=94	=94
4D\	.	.	4dd\	.	4ff#t\	.	.	.	.	.
4AA/	#	.	4cc#X\	.	4ee\	.	.	.	.	.
2r	.	.	(8cc#\L	.	(8ee\L	.	.	.	.	.
.	.	.	8b\)	.	8gg#X\)	.	.	.	.	.
.	.	.	(8b\	.	(8gg#\	.	.	.	.	.
.	.	.	8cc#\J)	.	8aa\J)	.	.	.	.	.
=95	=95	=95	=95	=95	=95	=95	=95	=95	=95	=95
4C#X/	6 5	.	4e/	.	8ggn\L	.	.	.	.	.
.	.	.	.	.	8ee\	.	.	.	.	.
4C#/	.	.	4e/	.	8cc#X\	.	.	.	.	.
.	.	.	.	.	8a\J	.	.	.	.	.
.	.	.	.	.	8qqa/	.	.	.	.	.
4C#/	.	.	4e/	.	2g/	.	.	.	.	.
4C#/	.	.	4e/	.	.	.	.	.	.	.
=96	=96	=96	=96	=96	=96	=96	=96	=96	=96	=96
!LO:SIC:v:s=4C#/	!	!	!	!	!	!	!	!	!	!
4C/	.	.	4e/	.	8g/L	.	00r	.	00r	.
.	.	.	.	.	8e/	.	.	.	.	.
!LO:SIC:v:s=4C#/	!	!	!	!	!	!	!	!	!	!
4C/	.	.	4e/	.	8c#X/	.	.	.	.	.
.	.	.	.	.	8A/J	.	.	.	.	.
!LO:SIC:v:s=4C#/	!	!	!	!	!	!	!	!	!	!
4C/	.	.	4e/	.	2G/	.	.	.	.	.
!LO:SIC:v:s=4C#/	!	!	!	!	!	!	!	!	!	!
4C/	.	.	4e/	.	.	.	.	.	.	.
=97	=97	=97	=97	=97	=97	=97	=97	=97	=97	=97
!	!	!	!	!	!LO:TUP:b	!	!	!	!	!
4D\	.	.	4f#/	.	12f#/L	.	.	.	.	.
.	.	.	.	.	12a/	.	.	.	.	.
.	.	.	.	.	12dd/J	.	.	.	.	.
*	*	*	*tuplet	*	*	*	*	*	*	*
!	!	!	!LO:TUP:b	!	!	!	!	!	!	!
4G\	.	.	12g/L	.	12b\L	.	.	.	.	.
.	.	.	12b/	.	12gg\	.	.	.	.	.
.	.	.	12g/J	.	12ee\J	.	.	.	.	.
4A\	4	.	4f#/	.	4dd\	.	.	.	.	.
!	!	!	!LO:TX:b:i:t=volti citiſ	!	!	!	!	!	!	!
4AA/	#	.	4e/	.	4cc#X\	.	.	.	.	.
!	!	!	!LO:PB:g=original	!	!	!	!	!	!	!
=98	=98	=98	=98	=98	=98	=98	=98	=98	=98	=98
!	!	!	!LO:TX:a:t=P:problem=brak drugiej strony partii vl 2	!	!	!	!	!	!	!
4r	.	.	1ryy	.	12dd\L	.	.	.	.	.
.	.	.	.	.	12ff#\	.	.	.	.	.
.	.	.	.	.	12dd\J	.	.	.	.	.
.	.	.	.	.	8qqb/	.	.	.	.	.
4D\	.	.	.	.	2a/	.	.	.	.	.
4C#X/	6 5	.	.	.	.	.	.	.	.	.
4AA/	.	.	.	.	4g/	.	.	.	.	.
!	!	!	!	!	!LO:LB:g=original	!	!	!	!	!
=99	=99	=99	=99	=99	=99	=99	=99	=99	=99	=99
4D\	.	.	1ryy	.	12f#\L	.	.	.	.	.
.	.	.	.	.	12a\	.	.	.	.	.
.	.	.	.	.	12dd\J	.	.	.	.	.
!	!	!	!	!	!LO:TUP:b	!	!	!	!	!
4G\	.	.	.	.	12b/L	.	.	.	.	.
.	.	.	.	.	12a/	.	.	.	.	.
.	.	.	.	.	12g/J	.	.	.	.	.
4A\	4	.	.	.	4f#/	.	.	.	.	.
4AA/	#	.	.	.	4e/	.	.	.	.	.
=100	=100	=100	=100	=100	=100	=100	=100	=100	=100	=100
4D\	.	.	1ryy	.	4d/	.	0r	.	0r	.
8B\|L	.	.	.	.	8b\L	.	.	.	.	.
8B\|J	.	.	.	.	8b\J	.	.	.	.	.
8G\|L	.	.	.	.	8g/L	.	.	.	.	.
8G\|	.	.	.	.	8g/	.	.	.	.	.
8G#X\|	.	.	.	.	8g#X/	.	.	.	.	.
8G#\|J	.	.	.	.	8g#/J	.	.	.	.	.
!LO:LB:g=original	!	!	!	!	!	!	!	!	!	!
=101	=101	=101	=101	=101	=101	=101	=101	=101	=101	=101
8A\L	.	.	1ryy	.	8a/L	.	.	.	.	.
8A\	.	.	.	.	8a/	.	.	.	.	.
8B\	.	.	.	.	8b/	.	.	.	.	.
8B\J	.	.	.	.	8b/J	.	.	.	.	.
8Gn\L	.	.	.	.	8gn/L	.	.	.	.	.
8G\	.	.	.	.	8g/	.	.	.	.	.
8A\	.	.	.	.	8a/	.	.	.	.	.
8A\J	.	.	.	.	8a/J	.	.	.	.	.
=102	=102	=102	=102	=102	=102	=102	=102	=102	=102	=102
!LO:TX:t=P:problem=mixed beam	!	!	!	!	!	!	!	!	!	!
8D/L	.	.	1ryy	.	4ff# 4a 4d/	.	1r	.	1r	.
8d\|	.	.	.	.	.	.	.	.	.	.
8A\|	.	.	.	.	4ff# 4a 4d/	.	.	.	.	.
8F#\|J	.	.	.	.	.	.	.	.	.	.
4D/	.	.	.	.	4ff# 4a 4d/	.	.	.	.	.
4r	.	.	.	.	4r	.	.	.	.	.
!	!	!	!	!	!	!	!LO:LB:g=original	!	!	!
=103	=103	=103	=103	=103	=103	=103	=103	=103	=103	=103
!	!	!LO:DY:rj:t=piano.	!	!	!	!LO:DY:rj:t=Piano.	!	!	!	!
4r	.	p	1ryy	.	4r	p	1D	re-	1D	Ad
4D\	.	.	.	.	4d/	.	.	.	.	.
4D\	.	.	.	.	4d/	.	.	.	.	.
4D\	.	.	.	.	4d/	.	.	.	.	.
=104	=104	=104	=104	=104	=104	=104	=104	=104	=104	=104
4r	.	.	1ryy	.	4r	.	1E	-tar-	1E	Te
4C#X/	6 3	.	.	.	4e/	.	.	.	.	.
4C#/	.	.	.	.	4e/	.	.	.	.	.
4C#/	.	.	.	.	4e/	.	.	.	.	.
=105	=105	=105	=105	=105	=105	=105	=105	=105	=105	=105
4r	.	.	1ryy	.	4r	.	1F#	-da	1F#	De-
4D\	.	.	.	.	4f#/	.	.	.	.	.
4D\	.	.	.	.	4f#/	.	.	.	.	.
4D\	.	.	.	.	4f#/	.	.	.	.	.
!	!	!	!	!	!LO:LB:g=original	!	!	!	!	!
=106	=106	=106	=106	=106	=106	=106	=106	=106	=106	=106
4r	.	.	1ryy	.	4r	.	1G	Gra-	1G	-um
4AA/	7 #	.	.	.	4g/	.	.	.	.	.
4C#X/	.	.	.	.	4g/	.	.	.	.	.
4AA/	.	.	.	.	4g/	.	.	.	.	.
!	!	!	!	!	!	!	!	!	!LO:LB:g=original	!
=107	=107	=107	=107	=107	=107	=107	=107	=107	=107	=107
4D\	.	.	1ryy	.	4.a/	.	4.A\	.	4.AT\	sem-
4D\	.	.	.	.	.	.	.	.	.	.
.	.	.	.	.	(16g/LL	.	16G\LL	.	(16G\LL	.
.	.	.	.	.	16a/JJ)	.	16A\JJ	.	16A\JJ)	.
4G\	.	.	.	.	4b/	.	4B\	-dum	4B\	.
4B\	.	.	.	.	4d/	.	4D/	na-	4D/	-per
=108	=108	=108	=108	=108	=108	=108	=108	=108	=108	=108
4A\	7 #	.	1ryy	.	4c#Xt/	.	4C#X/	-tu-	4C#X/	cla-
4D\	.	.	.	.	4d/	.	4D/	-ra	4D/	-mo,
!	!	!	!	!	!	!LO:DY:a:t=for.	!	!	!	!
4D\|	.	.	.	.	(4d/	f	2r	.	2r	.
4D#X\|	.	.	.	.	4d#X/)	.	.	.	.	.
=109	=109	=109	=109	=109	=109	=109	=109	=109	=109	=109
!	!	!	!	!	!	!LO:DY:a:t=pia.	!	!	!	!
4E\	5 3	.	1ryy	.	4e/	p	1E	nam	1E	Te
4E\	.	.	.	.	4e/	.	.	.	.	.
4E\	.	.	.	.	4e/	.	.	.	.	.
4E\	.	.	.	.	4e/	.	.	.	.	.
!LO:LB:g=original	!	!	!	!	!	!	!	!	!	!
=110	=110	=110	=110	=110	=110	=110	=110	=110	=110	=110
4r	.	.	1ryy	.	4r	.	1F#	fruc-	1F#	qvi
4D#X\	6 3	.	.	.	4f#/	.	.	.	.	.
4D#\	.	.	.	.	4f#/	.	.	.	.	.
4D#\	.	.	.	.	4f#/	.	.	.	.	.
=111	=111	=111	=111	=111	=111	=111	=111	=111	=111	=111
4r	.	.	1ryy	.	4r	.	1G	-tum	1G	in-
4E\	.	.	.	.	4g/	.	.	.	.	.
4E\	.	.	.	.	4g/	.	.	.	.	.
4E\	.	.	.	.	4g/	.	.	.	.	.
!	!	!	!	!	!	!	!LO:LB:g=original	!	!	!
=112	=112	=112	=112	=112	=112	=112	=112	=112	=112	=112
4r	.	.	1ryy	.	4r	.	1A	est	1A	-ceſ-
4BB/	7 #	.	.	.	4a/	.	.	.	.	.
4D#X\	.	.	.	.	4a/	.	.	.	.	.
4BB/	.	.	.	.	4a/	.	.	.	.	.
=113	=113	=113	=113	=113	=113	=113	=113	=113	=113	=113
4E\	.	.	1ryy	.	4.b\	.	(4.B\	pro-	4.Bt\	-san-
4E\	.	.	.	.	.	.	.	.	.	.
.	.	.	.	.	(16a\LL	.	16A\LL)	.	(16A\LL	.
.	.	.	.	.	16b\JJ	.	16B\JJ	.	16B\JJ)	.
4A\	n	.	.	.	4cc\)	.	4c\	.	4c\	.
4c\	.	.	.	.	4e/	.	4E\	-duc-	4E\	-ter
=114	=114	=114	=114	=114	=114	=114	=114	=114	=114	=114
4B\	#	.	1ryy	.	4d#X/	.	4D#X\	-tu-	4D#X\	a-
4E\	.	.	.	.	4e/	.	4E\	-ra	4E\	-mo,
8Gn\L	6 3	.	.	.	2r	.	2r	.	2r	.
8B\|	.	.	.	.	.	.	.	.	.	.
8G\|	.	.	.	.	.	.	.	.	.	.
8E\|J	.	.	.	.	.	.	.	.	.	.
!	!	!	!	!	!LO:LB:g=original	!	!	!	!LO:LB:g=original	!
=115	=115	=115	=115	=115	=115	=115	=115	=115	=115	=115
4E\	.	.	1ryy	.	4b\	.	8B\L	Gra-	8B\L	nam
.	.	.	.	.	.	.	8A\	.	(8A\	.
4E\	.	.	.	.	4b\	.	8G\	.	8G\	.
.	.	.	.	.	.	.	8F#\J	.	8F#\J)	.
4G\	6 3	.	.	.	4b\	.	4E\	.	4E\	.
4E\	.	.	.	.	4b\	.	4B\	-ti-	4B\	tu
=116	=116	=116	=116	=116	=116	=116	=116	=116	=116	=116
4A\	.	.	1ryy	.	8cc\L	.	2c\	-a	2c\	me
.	.	.	.	.	8cc\	.	.	.	.	.
4AA/	.	.	.	.	8aa\	.	.	.	.	.
.	.	.	.	.	8aa\J	.	.	.	.	.
4A\	.	.	.	.	8cc\L	.	2r	.	2r	.
.	.	.	.	.	8cc\	.	.	.	.	.
4AA/	.	.	.	.	8aa\	.	.	.	.	.
.	.	.	.	.	8aa\J	.	.	.	.	.
=117	=117	=117	=117	=117	=117	=117	=117	=117	=117	=117
4D\	.	.	1ryy	.	4a/	.	8A\L	in	8A\L	pri-
.	.	.	.	.	.	.	8G\	.	(8G\	.
4D\	.	.	.	.	4a/	.	8F#\	.	8F#\	.
.	.	.	.	.	.	.	8E\J	.	8E\J)	.
4D\	.	.	.	.	4a/	.	4D\	Ma-	(4D\	.
4D\	.	.	.	.	4a/	.	4A\	-ri-	4A\)	.
!	!	!	!	!	!	!	!LO:LB:g=original	!	!	!
=118	=118	=118	=118	=118	=118	=118	=118	=118	=118	=118
4G\	.	.	1ryy	.	8b\L	.	2B\	-a	2B\	-us
.	.	.	.	.	8b\	.	.	.	.	.
4GG/	.	.	.	.	8gg\	.	.	.	.	.
.	.	.	.	.	8gg\J	.	.	.	.	.
4G\	.	.	.	.	8b\L	.	2r	.	2r	.
.	.	.	.	.	8b\	.	.	.	.	.
4GG/	.	.	.	.	8gg\	.	.	.	.	.
.	.	.	.	.	8gg\J	.	.	.	.	.
=119	=119	=119	=119	=119	=119	=119	=119	=119	=119	=119
*	*	*	*	*	*	*	*	*ij	*	*
4C/	.	.	1ryy	.	4g/	.	8G\L	in	8G\L	a-
.	.	.	.	.	.	.	8F#\	.	(8F#\	.
4C/	.	.	.	.	4g/	.	8E\	.	8E\	.
.	.	.	.	.	.	.	8D\J	.	8D\J)	.
4C/	.	.	.	.	4g/	.	4C/	Ma-	(4C\	-ma-
4C/	.	.	.	.	4g/	.	4G\	-ri-	4G\)	.
=120	=120	=120	=120	=120	=120	=120	=120	=120	=120	=120
4F#\	.	.	1ryy	.	8a\L	.	2A\	-a	2A\	-ſti,
.	.	.	.	.	8a\	.	.	.	.	.
4FF#/	.	.	.	.	8ff#\	.	.	.	.	.
.	.	.	.	.	8ff#\J	.	.	.	.	.
4F#\	.	.	.	.	8a\L	.	2r	.	2r	.
.	.	.	.	.	8a\	.	.	.	.	.
4FF#/	.	.	.	.	8ff#\	.	.	.	.	.
.	.	.	.	.	8ff#\J	.	.	.	.	.
!LO:LB:g=original	!	!	!	!	!	!	!	!	!	!
=121	=121	=121	=121	=121	=121	=121	=121	=121	=121	=121
4BB/	#	.	1ryy	.	4f#/	.	8F#\L	in	8F#\L	qvan-
.	.	.	.	.	.	.	8E\	.	(8E\	.
4BB/	.	.	.	.	4f#/	.	8D#X\	.	8D#X\	.
.	.	.	.	.	.	.	8C#X\J	.	8C#X\J)	.
4BB/	7	.	.	.	4f#/	.	4BB/	Ma-	4BB/	.
4BB/	.	.	.	.	4f#/	.	4F#\	-ri-	4F#\	-do
!	!	!	!	!	!	!	!	!	!LO:LB:g=original	!
=122	=122	=122	=122	=122	=122	=122	=122	=122	=122	=122
4E\	.	.	1ryy	.	4g/	.	4G,<\	-a	4G\	me
*	*	*	*	*	*	*	*	*Xij	*	*
8c\|L	.	.	.	.	8cc\L	.	4c\	Gra-	4c\	a
8c\|J	.	.	.	.	8cc\J	.	.	.	.	.
8B\|L	.	.	.	.	8b/L	.	4B\	-ti-	4B\	Mor-
8B\|	.	.	.	.	8b/	.	.	.	.	.
8A#X\|	.	.	.	.	8a#X/	.	4A#X\	-a	4A#X\	-te
8A#\|J	.	.	.	.	8a#/J	.	.	.	.	.
!	!	!	!	!	!	!	!LO:LB:g=original	!	!	!
=123	=123	=123	=123	=123	=123	=123	=123	=123	=123	=123
8B\|L	.	.	1ryy	.	8b\L	.	4B\	in	4B\	li-
8B\|	.	.	.	.	8b\	.	.	.	.	.
8c\|	.	.	.	.	8cc\	.	4c\	Ma-	4c\	-be-
8c\|J	.	.	.	.	8cc\J	.	.	.	.	.
8An\|L	.	.	.	.	8a\L	.	(4An\	-ri-	(4An\	-ra-
8A\|	.	.	.	.	8a\	.	.	.	.	.
8B\|	.	.	.	.	8b\	.	4B\)	.	4B\)	.
8B\|J	.	.	.	.	8b\J	.	.	.	.	.
!	!	!	!	!	!LO:LB:g=original	!	!	!	!	!
=124	=124	=124	=124	=124	=124	=124	=124	=124	=124	=124
*2\right	*	*	*	*	*	*	*	*	*	*
2E\	.	.	1ryy	.	2e/	.	2E\	-a	2E\	-sti,
!	!	!	!	!	!	!LO:DY:a:t=for.	!	!	!	!
2r	.	.	.	.	8d/L	f	2r	.	2r	.
.	.	.	.	.	8f#/	.	.	.	.	.
.	.	.	.	.	8a/	.	.	.	.	.
.	.	.	.	.	8cc/J	.	.	.	.	.
=125	=125	=125	=125	=125	=125	=125	=125	=125	=125	=125
4r	.	.	1ryy	.	4b\	.	1G	E-	1G	ad
!	!	!	!	!	!	!LO:DY:a:t=p&colon;	!	!	!	!
4G\	.	.	.	.	4g/	p	.	.	.	.
4G\	.	.	.	.	4g/	.	.	.	.	.
4G\	.	.	.	.	4g/	.	.	.	.	.
=126	=126	=126	=126	=126	=126	=126	=126	=126	=126	=126
4r	.	.	1ryy	.	4r	.	1A	-va	1A	Te
4F#\	6 3	.	.	.	4a/	.	.	.	.	.
4F#\	.	.	.	.	4a/	.	.	.	.	.
4F#\	.	.	.	.	4a/	.	.	.	.	.
=127	=127	=127	=127	=127	=127	=127	=127	=127	=127	=127
4r	.	.	1ryy	.	4r	.	1B	la-	1B	De-
4G\	.	.	.	.	4b\	.	.	.	.	.
4G\	.	.	.	.	4b\	.	.	.	.	.
4G\	.	.	.	.	4b\	.	.	.	.	.
=128	=128	=128	=128	=128	=128	=128	=128	=128	=128	=128
4r	.	.	1ryy	.	4r	.	1c	-bem	1c	-um
4D\	7	.	.	.	4cc\	.	.	.	.	.
4F#\	.	.	.	.	4cc\	.	.	.	.	.
4D\	.	.	.	.	4cc\	.	.	.	.	.
=129	=129	=129	=129	=129	=129	=129	=129	=129	=129	=129
4G\	.	.	1ryy	.	4b\	.	8d\L	tu-	8d\L	pi-
.	.	.	.	.	.	.	8c\	.	(8c\	.
4GG/	.	.	.	.	4b\	.	8B\	.	8B\	.
.	.	.	.	.	.	.	8A\J	.	8A\J)	.
4BB/	.	.	.	.	4b\	.	4G\	.	(4G\	-a
4GG/	n7	.	.	.	4b\	.	4Fn\	-lit	4Fn\)	.
!LO:PB:g=original	!	!	!	!	!	!	!LO:LB:g=original	!	!LO:LB:g=original	!
=130	=130	=130	=130	=130	=130	=130	=130	=130	=130	=130
4C/	.	.	1ryy	.	4cc\	.	4E\	ae-	4E\	Vo-
4C/	.	.	.	.	4ee\	.	4c\	-vo	4c\	-ce
4E\	6 3	.	.	.	4r	.	4r	.	4r	.
4C/	.	.	.	.	4ee\	.	4c\	tu-	4c\	cla-
=131	=131	=131	=131	=131	=131	=131	=131	=131	=131	=131
4GG/	.	.	1ryy	.	4dd\	.	8d\L	.	8d\L	.
.	.	.	.	.	.	.	8c\	.	(8c\	.
4GG/	.	.	.	.	4dd\	.	8B\	.	8B\	.
.	.	.	.	.	.	.	8A\J	.	8A\J)	.
4BB/	6 3	.	.	.	4dd\	.	4G\	.	(4G\	.
4GG/	n7	.	.	.	4dd\	.	4Fn\	-lit	4Fn\)	.
=132	=132	=132	=132	=132	=132	=132	=132	=132	=132	=132
!	!	!	!	!	!	!	!	!	!LO:SIC:v:s=8qqFn/	!
.	.	.	.	.	.	.	.	.	8qqF#/	.
!	!	!	!	!	!	!LO:DY:a:t=f&colon;	!LO:SIC:v:s=4Fn\	!	!	!
4C/	.	.	1ryy	.	8cc\L	f	4F#\	ae-	2E\	-mo,
.	.	.	.	.	8ee\	.	.	.	.	.
4G\	n7	.	.	.	8dd\	.	4E\	-vo	.	.
.	.	.	.	.	8b\J	.	.	.	.	.
4c\	.	.	.	.	4cc\	.	2r	.	2r	.
8C/L	.	.	.	.	4r	.	.	.	.	.
8BB/J	6\	.	.	.	.	.	.	.	.	.
=133	=133	=133	=133	=133	=133	=133	=133	=133	=133	=133
!	!	!	!	!	!	!LO:DY:a:t=p&colon;	!	!	!	!
4AA/	#	.	1ryy	.	4r	p	1A	abs	1A	Te
4A\	.	.	.	.	4a/	.	.	.	.	.
4A\	.	.	.	.	4a/	.	.	.	.	.
4A\	.	.	.	.	4a/	.	.	.	.	.
=134	=134	=134	=134	=134	=134	=134	=134	=134	=134	=134
4r	.	.	1ryy	.	4r	.	1B	que	1B	qve
4G#X\	6 3	.	.	.	4b\	.	.	.	.	.
4G#\	.	.	.	.	4b\	.	.	.	.	.
4G#\	.	.	.	.	4b\	.	.	.	.	.
!	!	!	!	!	!LO:LB:g=original	!	!	!	!	!
=135	=135	=135	=135	=135	=135	=135	=135	=135	=135	=135
4r	.	.	1ryy	.	4r	.	1c#X	ru-	1c#X	De-
4A\	#	.	.	.	4cc#X\	.	.	.	.	.
4A\	.	.	.	.	4cc#\	.	.	.	.	.
4A\	.	.	.	.	4cc#\	.	.	.	.	.
=136	=136	=136	=136	=136	=136	=136	=136	=136	=136	=136
4r	.	.	1ryy	.	4r	.	1d	-ga	1d	-um
4E\	7 #	.	.	.	4dd\	.	.	.	.	.
4G#X\	.	.	.	.	4dd\	.	.	.	.	.
4E\	.	.	.	.	4dd\	.	.	.	.	.
!	!	!	!	!	!	!	!LO:LB:g=original	!	!	!
=137	=137	=137	=137	=137	=137	=137	=137	=137	=137	=137
4A\	7 #	.	1ryy	.	4cc#X\	.	8e\L	Si-	8e\L	de-
.	.	.	.	.	.	.	8d\	.	(8d\	.
4AA/	.	.	.	.	4cc#\	.	8c#X\	.	8c#X\	.
.	.	.	.	.	.	.	8B\J	.	8B\J)	.
4C#X/	.	.	.	.	4cc#\	.	4A\	.	4A\	-vo-
4AA/	.	.	.	.	4cc#\	.	4G\	-ne	4G\	-to
!	!	!	!	!	!	!	!	!	!LO:LB:g=original	!
=138	=138	=138	=138	=138	=138	=138	=138	=138	=138	=138
4D\	.	.	1ryy	.	4dd\	.	4F#\	nae-	4F#\	Cor-
4D\	.	.	.	.	4ff#\	.	4d\	-vo	4d\	-de
4F#\	.	.	.	.	4r	.	2r	.	4r	.
4D\	.	.	.	.	4ff#\	.	.	.	4d\	a-
=139	=139	=139	=139	=139	=139	=139	=139	=139	=139	=139
4A\	#	.	1ryy	.	4ee\	.	8e\L	Si-	8e\L	.
.	.	.	.	.	.	.	8d\	.	(8d\	.
4AA/	.	.	.	.	4ee\	.	8c#X\	.	8c#X\	.
.	.	.	.	.	.	.	8B\J	.	8B\J)	.
4C#X/	.	.	.	.	4ee\	.	4A\	.	(4A\	.
4AA/	.	.	.	.	4ee\	.	4G\	-ne	4G\)	.
!LO:LB:g=original	!	!	!	!	!	!	!	!	!	!
=140	=140	=140	=140	=140	=140	=140	=140	=140	=140	=140
.	.	.	.	.	.	.	.	.	8qqG/	.
!	!	!	!	!	!	!LO:DY:a:t=f.	!	!	!	!
4D\	7	.	1ryy	.	(8dd\L	f	4G\	nae-	2F#\	-mo,
.	.	.	.	.	8ff#\)	.	.	.	.	.
4A\	#	.	.	.	(8ee\	.	4F#\	-vo	.	.
.	.	.	.	.	8cc#X\J)	.	.	.	.	.
8d\|L	.	.	.	.	4dd\	.	2r	.	2r	.
8A\|	.	.	.	.	.	.	.	.	.	.
8F#\|	.	.	.	.	4r	.	.	.	.	.
8D\|J	.	.	.	.	.	.	.	.	.	.
=141	=141	=141	=141	=141	=141	=141	=141	=141	=141	=141
4D\	n7	.	1ryy	.	4r	.	4c\	E-	1cT	nam
4A\	.	.	.	.	4ff#X\	.	4c\	-va	.	.
!	!	!	!	!	!	!	!LO:LB:g=original	!	!	!
4F#\	.	.	.	.	4ff#\	.	4c\	la-	.	.
4D\	.	.	.	.	4ff#\	.	4c\	-bem	.	.
=142	=142	=142	=142	=142	=142	=142	=142	=142	=142	=142
4G\	.	.	1ryy	.	4gg\	.	8B\L	tu-	(8B\L	Tu
.	.	.	.	.	.	.	8G\J	.	8G\J)	.
4r	.	.	.	.	4r	.	8c\L	-lit	(8c\L	me
.	.	.	.	.	.	.	8A\J	.	8A\J)	.
2r	.	.	.	.	2r	.	8d\L	ae-	(8d\L	pri-
.	.	.	.	.	.	.	8B\J	.	8B\J)	.
.	.	.	.	.	.	.	8A\L	-vo	(8A\L	-us
.	.	.	.	.	.	.	8G\J	.	8G\J)	.
=143	=143	=143	=143	=143	=143	=143	=143	=143	=143	=143
!LO:TX:a:t=P:problem=takty 143-144 zapisane repetycją	!	!	!	!	!	!	!LO:SIC:v:l:s=abs	!	!LO:TX:b:i:t=volti cisitſ&colon;	!
4D\yy	.	.	1ryy	.	4r	.	4c\	ab	1cT	a-
4A\yy	.	.	.	.	4ff#X\	.	4c\	qve	.	.
4F#\yy	.	.	.	.	4ff#\	.	4c\	ru-	.	.
4D\yy	.	.	.	.	4ff#\	.	4c\	-ga	.	.
!	!	!	!	!	!	!	!	!	!LO:PB:g=original	!
=144	=144	=144	=144	=144	=144	=144	=144	=144	=144	=144
4G\yy	.	.	1ryy	.	4gg\	.	12B\L	Si-	12B\L	-ma-
.	.	.	.	.	.	.	12A\	.	12A\	.
.	.	.	.	.	.	.	12G\J	.	12G\J	.
4ryy	.	.	.	.	4r	.	12c\L	-ne	12c\L	.
.	.	.	.	.	.	.	12B\	.	12B\	.
.	.	.	.	.	.	.	12A\J	.	12A\J	.
!	!	!	!	!	!	!	!LO:LB:g=original	!	!	!
2ryy	.	.	.	.	2r	.	12d\L	nae-	12d\L	.
.	.	.	.	.	.	.	12c\	.	12c\	.
.	.	.	.	.	.	.	12B\J	.	12B\J	.
.	.	.	.	.	.	.	8A\L	.	(8A\L	.
.	.	.	.	.	.	.	8G\J	.	8G\J)	.
!	!	!	!	!	!LO:LB:g=original	!	!	!	!	!
=145	=145	=145	=145	=145	=145	=145	=145	=145	=145	=145
.	.	.	.	.	.	.	.	.	8qqG/	.
!	!	!	!	!	!	!LO:DY:a:t=f&colon;	!	!	!	!
4d\	6 4	.	1ryy	.	(8a\L	f	2F#\	-vo	2F#\	-sti,
.	.	.	.	.	8dd\)	.	.	.	.	.
4D/	5 3	.	.	.	(8cc#X\	.	.	.	.	.
.	.	.	.	.	8dd\J)	.	.	.	.	.
2r	.	.	.	.	(8ff#\L	.	2r	.	2r	.
.	.	.	.	.	8dd\)	.	.	.	.	.
.	.	.	.	.	(8cc#\	.	.	.	.	.
.	.	.	.	.	8dd\J)	.	.	.	.	.
=146	=146	=146	=146	=146	=146	=146	=146	=146	=146	=146
!	!	!	!	!	!	!LO:DY:a:t=pia	!	!	!	!
4D\	.	.	1ryy	.	4r	p	1C	E-	1C	qvan-
4r	.	.	.	.	4cn/	.	.	.	.	.
2r	.	.	.	.	4c/	.	.	.	.	.
.	.	.	.	.	4c/	.	.	.	.	.
=147	=147	=147	=147	=147	=147	=147	=147	=147	=147	=147
4D\	.	.	1ryy	.	4r	.	1F#	-va	1F#	-do
4r	.	.	.	.	4f#/	.	.	.	.	.
2r	.	.	.	.	4f#/	.	.	.	.	.
.	.	.	.	.	4f#/	.	.	.	.	.
=148	=148	=148	=148	=148	=148	=148	=148	=148	=148	=148
4D\	.	.	1ryy	.	4r	.	1A	la-	1A	me
4r	.	.	.	.	4a/	.	.	.	.	.
2r	.	.	.	.	4a/	.	.	.	.	.
.	.	.	.	.	4a/	.	.	.	.	.
=149	=149	=149	=149	=149	=149	=149	=149	=149	=149	=149
4D\	.	.	1ryy	.	4r	.	1c	-bem	1c	ab
4r	.	.	.	.	4cc\	.	.	.	.	.
2r	.	.	.	.	4cc\	.	.	.	.	.
.	.	.	.	.	4cc\	.	.	.	.	.
!	!	!	!	!	!	!	!LO:PB:g=original	!	!	!
=150	=150	=150	=150	=150	=150	=150	=150	=150	=150	=150
.	.	.	.	.	8qqcc/	.	8qqc/	.	8qqc/	.
4GG/	.	.	1ryy	.	4b\	.	4B\	tu-	4B\	ae-
4BB/	6	.	.	.	(8a/L	.	8A\L	.	(8A\L	.
.	.	.	.	.	8b/J)	.	8B\J	.	8B\J)	.
.	.	.	.	.	8qqdd/	.	8qqd/	.	8qqd/	.
4C/	.	.	.	.	4cc\	.	4c\	.	4c\	-ter-
4E\	6	.	.	.	(8b/L	.	8B\L	-lit	(8B\L	-na
.	.	.	.	.	8a/J)	.	8A\J	.	8A\J)	.
=151	=151	=151	=151	=151	=151	=151	=151	=151	=151	=151
4D\	4	.	1ryy	.	2g/	.	2G\	ae-	2G\	Mor-
4C/	.	.	.	.	.	.	.	.	.	.
4D\	3	.	.	.	2aT/	.	2A\	-vo	2A\	-te
4DD/	.	.	.	.	.	.	.	.	.	.
!LO:LB:g=original	!	!	!	!	!	!	!	!	!LO:LB:g=original	!
=152	=152	=152	=152	=152	=152	=152	=152	=152	=152	=152
4r	.	.	1ryy	.	4r	.	1G	abs	1GT	li-
4G\	.	.	.	.	4g/	.	.	.	.	.
4G\	.	.	.	.	4g/	.	.	.	.	.
4G\	.	.	.	.	4g/	.	.	.	.	.
=153	=153	=153	=153	=153	=153	=153	=153	=153	=153	=153
4r	.	.	1ryy	.	4r	.	1B	qve	1Bt	-be-
4G\	.	.	.	.	4b\	.	.	.	.	.
4G\	.	.	.	.	4b\	.	.	.	.	.
4G\	.	.	.	.	4b\	.	.	.	.	.
!	!	!	!	!	!LO:LB:g=original	!	!	!	!	!
=154	=154	=154	=154	=154	=154	=154	=154	=154	=154	=154
2C/	.	.	1ryy	.	4.a/	.	4.A\	ru-	(4.A\	-ra-
.	.	.	.	.	8cc\	.	8c\	.	8c\)	.
4D\	4	.	.	.	(8b/L	.	8B\L	.	8B\L	.
.	.	.	.	.	8a/)	.	8A\	.	(8A\	.
4D\	3	.	.	.	(8g/	.	8G\	-ga	8G\	.
.	.	.	.	.	8f#/J)	.	8F#\J	.	8F#\J)	.
!	!	!	!	!	!	!	!LO:LB:g=original	!	!	!
=155	=155	=155	=155	=155	=155	=155	=155	=155	=155	=155
4r	.	.	1ryy	.	4r	.	1G	Si-	1G	.
4G\	.	.	.	.	4g/	.	.	.	.	.
4G\	.	.	.	.	4g/	.	.	.	.	.
4G\	.	.	.	.	4g/	.	.	.	.	.
=156	=156	=156	=156	=156	=156	=156	=156	=156	=156	=156
.	.	.	.	.	.	.	.	.	8qqc/	.
4r	.	.	1ryy	.	4r	.	1B	-ne	1B	.
4G\	.	.	.	.	4b\	.	.	.	.	.
4G\	.	.	.	.	4b\	.	.	.	.	.
4G\	.	.	.	.	4b\	.	.	.	.	.
=157	=157	=157	=157	=157	=157	=157	=157	=157	=157	=157
2c\	.	.	1ryy	.	4.a/	.	4.A\	nae-	4.A\	.
.	.	.	.	.	8ee\|	.	8e\	.	8e\	.
4d\	4	.	.	.	(8dd\L	.	8d\L	.	8d\L	.
.	.	.	.	.	8cc\)	.	8c\J	.	(8c\	-sti,
4D/	3	.	.	.	(8b\	.	8B\L	-vo	8B\	.
.	.	.	.	.	8a\J)	.	8A\J	.	8A\J)	.
=158	=158	=158	=158	=158	=158	=158	=158	=158	=158	=158
4G\	.	.	1ryy	.	4g/	.	4G\	Con-	4G\	non
8E\|L	.	.	.	.	8e/L	.	4E\	-ci-	4E\	ceſ-
8E\|J	.	.	.	.	8e/J	.	.	.	.	.
8C/|L	.	.	.	.	8c/L	.	(4C/	-pi-	4C/	-sa-
8C/|	.	.	.	.	8c/	.	.	.	.	.
8C#X/|	.	.	.	.	8c#X/	.	4C#X/)	.	4C#X/	-bo
8C#/|J	.	.	.	.	8c#/J	.	.	.	.	.
=159	=159	=159	=159	=159	=159	=159	=159	=159	=159	=159
8D\|L	.	.	1ryy	.	8d/L	.	4D,<\	-tur	4D\	te
8D\|	.	.	.	.	8d/	.	.	.	.	.
8E\|	.	.	.	.	8e/	.	4E\	Ma-	4E\	a-
8E\|J	.	.	.	.	8e/J	.	.	.	.	.
!	!	!	!	!	!	!	!	!	!LO:LB:g=original	!
8Cn/|L	.	.	.	.	8cn/L	.	(4C/	-ri-	(4C/	-ma-
8C/|	.	.	.	.	8c/	.	.	.	.	.
8D/|	.	.	.	.	8d/	.	4D/)	.	4D/)	.
8D/|J	.	.	.	.	8d/J	.	.	.	.	.
!	!	!	!	!	!LO:LB:g=original	!	!LO:LB:g=original	!	!	!
=160	=160	=160	=160	=160	=160	=160	=160	=160	=160	=160
!	!	!	!	!	!	!LO:DY:a:t=for.	!	!	!	!
4GG/	.	.	1ryy	.	4G/	f	4GG/	-a	4GG/	-re
8G\|L	.	.	.	.	8g/L	.	4r	.	4r	.
8G\|J	.	.	.	.	8g/J	.	.	.	.	.
!LO:LB:g=original	!	!	!	!	!	!	!	!	!	!
8E\L	.	.	.	.	8e/L	.	2r	.	2r	.
8E\	.	.	.	.	8e/	.	.	.	.	.
8C#X\	.	.	.	.	8c#X/	.	.	.	.	.
8C#\J	.	.	.	.	8c#/J	.	.	.	.	.
=161	=161	=161	=161	=161	=161	=161	=161	=161	=161	=161
!LO:TX:b:i:t=Aria da Capo usq(ue) ad Signum 𝄐𝄑	!	!	!	!	!	!	!	!	!	!
1D;	.	.	1ryy	.	2d/	.	2D;\	Ma-	2D;\	o
!	!	!	!	!	!LO:TX:b:i:t=Aria da Capi usque a Segno 𝄐𝄑	!	!	!	!	!
.	.	.	.	.	2r;	.	2AT<\	-ri-	2AT\	De-
=162	=162	=162	=162	=162	=162	=162	=162	=162	=162	=162
1ryy	.	.	1ryy	.	1ryy	.	2G\	-a	2G\	-us.
.	.	.	.	.	.	.	2r	.	2r	.
=163	=163	=163	=163	=163	=163	=163	=163	=163	=163	=163
!	!	!	!	!	!	!	!LO:TX:a:t=P:problem=da Capo rozpisane pauzami tylko w partii basowej	!	!LO:TX:a:t=P:problem=da Capo rozpisane pauzami tylko w partii basowej	!
1ryy	.	.	1ryy	.	1ryy	.	00r	.	00r	.
=164	=164	=164	=164	=164	=164	=164	=164	=164	=164	=164
1ryy	.	.	1ryy	.	1ryy	.	.	.	.	.
=165	=165	=165	=165	=165	=165	=165	=165	=165	=165	=165
1ryy	.	.	1ryy	.	1ryy	.	.	.	.	.
=166	=166	=166	=166	=166	=166	=166	=166	=166	=166	=166
1ryy	.	.	1ryy	.	1ryy	.	.	.	.	.
=167	=167	=167	=167	=167	=167	=167	=167	=167	=167	=167
1ryy	.	.	1ryy	.	1ryy	.	00r	.	00r	.
=168	=168	=168	=168	=168	=168	=168	=168	=168	=168	=168
1ryy	.	.	1ryy	.	1ryy	.	.	.	.	.
=169	=169	=169	=169	=169	=169	=169	=169	=169	=169	=169
1ryy	.	.	1ryy	.	1ryy	.	.	.	.	.
=170	=170	=170	=170	=170	=170	=170	=170	=170	=170	=170
1ryy	.	.	1ryy	.	1ryy	.	.	.	.	.
=171	=171	=171	=171	=171	=171	=171	=171	=171	=171	=171
1ryy	.	.	1ryy	.	1ryy	.	00r	.	00r	.
=172	=172	=172	=172	=172	=172	=172	=172	=172	=172	=172
1ryy	.	.	1ryy	.	1ryy	.	.	.	.	.
=173	=173	=173	=173	=173	=173	=173	=173	=173	=173	=173
1ryy	.	.	1ryy	.	1ryy	.	.	.	.	.
=174	=174	=174	=174	=174	=174	=174	=174	=174	=174	=174
1ryy	.	.	1ryy	.	1ryy	.	.	.	.	.
=175	=175	=175	=175	=175	=175	=175	=175	=175	=175	=175
1ryy	.	.	1ryy	.	1ryy	.	00r	.	00r	.
=176	=176	=176	=176	=176	=176	=176	=176	=176	=176	=176
1ryy	.	.	1ryy	.	1ryy	.	.	.	.	.
=177	=177	=177	=177	=177	=177	=177	=177	=177	=177	=177
1ryy	.	.	1ryy	.	1ryy	.	.	.	.	.
=178	=178	=178	=178	=178	=178	=178	=178	=178	=178	=178
1ryy	.	.	1ryy	.	1ryy	.	.	.	.	.
=179	=179	=179	=179	=179	=179	=179	=179	=179	=179	=179
1ryy	.	.	1ryy	.	1ryy	.	00r	.	00r	.
=180	=180	=180	=180	=180	=180	=180	=180	=180	=180	=180
1ryy	.	.	1ryy	.	1ryy	.	.	.	.	.
=181	=181	=181	=181	=181	=181	=181	=181	=181	=181	=181
1ryy	.	.	1ryy	.	1ryy	.	.	.	.	.
=182	=182	=182	=182	=182	=182	=182	=182	=182	=182	=182
1ryy	.	.	1ryy	.	1ryy	.	.	.	.	.
=183	=183	=183	=183	=183	=183	=183	=183	=183	=183	=183
1ryy	.	.	1ryy	.	1ryy	.	00r	.	00r	.
=184	=184	=184	=184	=184	=184	=184	=184	=184	=184	=184
1ryy	.	.	1ryy	.	1ryy	.	.	.	.	.
=185	=185	=185	=185	=185	=185	=185	=185	=185	=185	=185
1ryy	.	.	1ryy	.	1ryy	.	.	.	.	.
=186	=186	=186	=186	=186	=186	=186	=186	=186	=186	=186
1ryy	.	.	1ryy	.	1ryy	.	.	.	.	.
=187	=187	=187	=187	=187	=187	=187	=187	=187	=187	=187
1ryy	.	.	1ryy	.	1ryy	.	00r	.	00r	.
=188	=188	=188	=188	=188	=188	=188	=188	=188	=188	=188
1ryy	.	.	1ryy	.	1ryy	.	.	.	.	.
=189	=189	=189	=189	=189	=189	=189	=189	=189	=189	=189
1ryy	.	.	1ryy	.	1ryy	.	.	.	.	.
=190	=190	=190	=190	=190	=190	=190	=190	=190	=190	=190
1ryy	.	.	1ryy	.	1ryy	.	.	.	.	.
=191	=191	=191	=191	=191	=191	=191	=191	=191	=191	=191
1ryy	.	.	1ryy	.	1ryy	.	00r	.	00r	.
=192	=192	=192	=192	=192	=192	=192	=192	=192	=192	=192
1ryy	.	.	1ryy	.	1ryy	.	.	.	.	.
=193	=193	=193	=193	=193	=193	=193	=193	=193	=193	=193
1ryy	.	.	1ryy	.	1ryy	.	.	.	.	.
=194	=194	=194	=194	=194	=194	=194	=194	=194	=194	=194
1ryy	.	.	1ryy	.	1ryy	.	.	.	.	.
=195	=195	=195	=195	=195	=195	=195	=195	=195	=195	=195
1ryy	.	.	1ryy	.	1ryy	.	00r	.	00r	.
=196	=196	=196	=196	=196	=196	=196	=196	=196	=196	=196
1ryy	.	.	1ryy	.	1ryy	.	.	.	.	.
=197	=197	=197	=197	=197	=197	=197	=197	=197	=197	=197
1ryy	.	.	1ryy	.	1ryy	.	.	.	.	.
=198	=198	=198	=198	=198	=198	=198	=198	=198	=198	=198
1ryy	.	.	1ryy	.	1ryy	.	.	.	.	.
=199	=199	=199	=199	=199	=199	=199	=199	=199	=199	=199
1ryy	.	.	1ryy	.	1ryy	.	00r	.	00r	.
=200	=200	=200	=200	=200	=200	=200	=200	=200	=200	=200
1ryy	.	.	1ryy	.	1ryy	.	.	.	.	.
=201	=201	=201	=201	=201	=201	=201	=201	=201	=201	=201
1ryy	.	.	1ryy	.	1ryy	.	.	.	.	.
=202	=202	=202	=202	=202	=202	=202	=202	=202	=202	=202
1ryy	.	.	1ryy	.	1ryy	.	.	.	.	.
=203	=203	=203	=203	=203	=203	=203	=203	=203	=203	=203
!	!	!	!	!	!	!	!	!	!LO:TX:a:t=Finis.	!
1ryy	.	.	1ryy	.	1ryy	.	1r	.	1r	.
!LO:LB:g=original	!	!	!	!	!LO:LB:g=original	!	!LO:LB:g=original	!	!LO:LB:g=original	!
=204||	=204||	=204||	=204||	=204||	=204||	=204||	=204||	=204||	=204||	=204||
*>C	*>C	*>C	*>C	*>C	*>C	*>C	*>C	*>C	*>C	*>C
*k[b-e-]	*	*	*k[b-e-]	*	*k[b-e-]	*	*k[b-e-]	*	*k[e-b-]	*
*B-:	*	*	*B-:	*	*B-:	*	*B-:	*	*B-:	*
*M3/4	*	*	*M3/4	*	*M3/4	*	*M3/4	*	*M3/4	*
!LO:TX:a:rj:t=adario.	!	!LO:DY:a:t=piano.	!	!	!LO:TX:a:t=Adagiò.	!	!LO:TX:a:t=adagio	!	!LO:TX:a:rj:t=adagio.	!
4G\	.	p	2.ryy	.	(8g/L	.	(4G\	Hinc	4G\	Ca-
.	.	.	.	.	8b-/)	.	.	.	.	.
4B-\	6 3	.	.	.	(8g/	.	4GG/)	.	4GG/	-pe
.	.	.	.	.	8b-/)	.	.	.	.	.
4G\	.	.	.	.	(8g/	.	8r	.	8r	.
.	.	.	.	.	8b-/J)	.	8B-\	plau-	8B-\	de-
=205	=205	=205	=205	=205	=205	=205	=205	=205	=205	=205
4D\	.	.	2.ryy	.	(8a\L	.	4A\	-da-	4A\	-vo-
.	.	.	.	.	8cc\)	.	.	.	.	.
4F#X\	6 3	.	.	.	(8a\	.	4FF#X/	-mus	4FF/	-ta
.	.	.	.	.	8cc\)	.	.	.	.	.
4D\	7	.	.	.	(8a\	.	8r	.	8r	.
.	.	.	.	.	8cc\J)	.	8c\	an-	8c\	a
=206	=206	=206	=206	=206	=206	=206	=206	=206	=206	=206
4G\	.	.	2.ryy	.	4b-\	.	8B-\L	-ge-	8B-\L	me
.	.	.	.	.	.	.	8d\	.	8d\	.
4r	.	.	.	.	4r	.	8c\	.	(8c\	.
.	.	.	.	.	.	.	8B-\	.	8B-\	.
4BB-/	6 3	.	.	.	4g/	.	8A\	.	8A\	.
.	.	.	.	.	.	.	8G\J	.	8G\J)	.
=207	=207	=207	=207	=207	=207	=207	=207	=207	=207	=207
4C/	6 3	.	2.ryy	.	4a/	.	8A\L	.	8A\L	Vo-
.	.	.	.	.	.	.	8c\	.	8c\	.
4r	.	.	.	.	4r	.	8B-\	.	8B-\	.
.	.	.	.	.	.	.	8A\J	.	(8A\	.
4D\	7 #	.	.	.	4f#X/	.	8G\L	-li	8G\	.
.	.	.	.	.	.	.	8F#X\J	.	8F#X\J)	.
!	!	!	!	!	!	!	!LO:LB:g=original	!	!	!
=208	=208	=208	=208	=208	=208	=208	=208	=208	=208	=208
!	!	!	!	!	!	!	!LO:SIC:v:s=8qqF#/	!	!LO:SIC:v:s=8qqF#/	!
.	.	.	.	.	.	.	8qqF/	.	8qqF/	.
!	!	!	!	!	!	!LO:DY:a:t=f&colon;	!	!	!	!
4GG/	.	.	2.ryy	.	4g/	f	4G\	cum	4G\	-ta,
4r	.	.	.	.	(8ee-\L	.	4r	.	4r	.
.	.	.	.	.	8cc\)	.	.	.	.	.
4r	.	.	.	.	(8b-\	.	4r	.	4r	.
.	.	.	.	.	8a\J)	.	.	.	.	.
!	!	!	!	!	!	!	!	!	!LO:LB:g=original	!
=209	=209	=209	=209	=209	=209	=209	=209	=209	=209	=209
!	!	!	!	!	!	!LO:DY:a:t=pia.	!	!	!	!
4BB-/	.	.	2.ryy	.	(8b-\L	p	4B-\	Me-	4B-\	ca-
.	.	.	.	.	8dd\)	.	.	.	.	.
4D\	6 3	.	.	.	(8b-\	.	4BB-/	-los	4BB-/	-pe
.	.	.	.	.	8dd\)	.	.	.	.	.
4BB-/	.	.	.	.	(8b-\	.	8r	.	8r	.
.	.	.	.	.	8dd\J)	.	8d\	Ca-	8d\	de-
=210	=210	=210	=210	=210	=210	=210	=210	=210	=210	=210
4F\	.	.	2.ryy	.	(8cc\L	.	4c\	-na-	4c\	-vo-
.	.	.	.	.	8ee-\)	.	.	.	.	.
4A\	6 3	.	.	.	(8cc\	.	4AA/	-mus	4AA/	-ta
.	.	.	.	.	8ee-\)	.	.	.	.	.
!	!	!	!	!	!	!	!LO:LB:g=original	!	!	!
4F\	7	.	.	.	(8cc\	.	8r	.	8r	.
.	.	.	.	.	8ee-\J)	.	8e-\	Cae-	8e-\	a
=211	=211	=211	=211	=211	=211	=211	=211	=211	=211	=211
4B-\	.	.	2.ryy	.	8dd\L	.	8d\L	.	8d\L	me
.	.	.	.	.	8b-\J	.	8B-\	.	(8B-\	.
4E-\	.	.	.	.	8g/L	.	8G\	.	8G\	.
.	.	.	.	.	8e-/	.	8E-\J	.	8E-\J)	.
4F\	7	.	.	.	8c/	.	8C/L	-li-	8C/L	Vo-
.	.	.	.	.	8A/J	.	8AA/J	.	8AA/J	.
=212	=212	=212	=212	=212	=212	=212	=212	=212	=212	=212
4BB-/	.	.	2.ryy	.	4B-/	.	4BB-/	-cum	4BB-/	-ta,
!	!	!	!	!	!	!LO:DY:a:t=for	!	!	!	!
4r	.	.	.	.	(8dd\L	f	4r	.	4r	.
.	.	.	.	.	8cc\)	.	.	.	.	.
4r	.	.	.	.	(8cc\	.	4r	.	4r	.
.	.	.	.	.	8b-\J)	.	.	.	.	.
!LO:LB:g=original	!	!	!	!	!LO:LB:g=original	!	!	!	!	!
=213	=213	=213	=213	=213	=213	=213	=213	=213	=213	=213
!	!	!	!	!	!	!LO:DY:a:t=pia	!	!	!	!
4G\	n	.	2.ryy	.	(8bn\L	p	4Bn\	me-	4Bn\	par-
.	.	.	.	.	8dd\)	.	.	.	.	.
4Bn\	6	.	.	.	(8b\	.	4GG/	-los	4GG/	-ce
.	.	.	.	.	8dd\)	.	.	.	.	.
4G\	7	.	.	.	(8b\	.	8r	.	8r	.
.	.	.	.	.	8dd\J)	.	8d\	Ca-	8d\	pec-
=214	=214	=214	=214	=214	=214	=214	=214	=214	=214	=214
4C/	.	.	2.ryy	.	(8cc\L	.	4c\	-na-	4c\	-can-
.	.	.	.	.	8ee-\)	.	.	.	.	.
4E-\	.	.	.	.	(8cc\	.	4C/	-mus	4C/	-ti,
.	.	.	.	.	8ee-\)	.	.	.	.	.
4C/	.	.	.	.	(8cc\	.	4r	.	4r	.
.	.	.	.	.	8ee-\J)	.	.	.	.	.
!	!	!	!	!	!	!	!	!	!LO:LB:g=original	!
=215	=215	=215	=215	=215	=215	=215	=215	=215	=215	=215
4F\	.	.	2.ryy	.	(8a\L	.	4A\	me-	4A\	do-
.	.	.	.	.	8cc\)	.	.	.	.	.
4A\	.	.	.	.	(8a\	.	4FF/	-los	4FF/	-na
.	.	.	.	.	8cc\)	.	.	.	.	.
4F\	7	.	.	.	(8a\	.	8r	.	8r	.
.	.	.	.	.	8cc\J)	.	8c\	Ca-	8c\	pe-
!	!	!	!	!	!	!	!LO:LB:g=original	!	!	!
=216	=216	=216	=216	=216	=216	=216	=216	=216	=216	=216
4BB-/	.	.	2.ryy	.	(8b-\L	.	4B-\	-na-	4B-\	-ten-
.	.	.	.	.	8dd\)	.	.	.	.	.
4D\	.	.	.	.	(8b-\	.	4BB-/	-mus	4BB-/	-ti,
.	.	.	.	.	8dd\)	.	.	.	.	.
4BB-/	.	.	.	.	(8b-\	.	4r	.	4r	.
.	.	.	.	.	8dd\J)	.	.	.	.	.
=217	=217	=217	=217	=217	=217	=217	=217	=217	=217	=217
4GG/	.	.	2.ryy	.	4dd\	.	4d\	Cae-	4d\	ut
4r	.	.	.	.	(8cc\L	.	8c\L	.	(8c\L	va-
.	.	.	.	.	8b-\)	.	8B-\J	.	8B-\J)	.
8r	.	.	.	.	(8a\	.	8A\L	-li-	(8A\L	-le-
8G\|	.	.	.	.	8g\J)	.	8G\J	.	8G\J)	.
=218	=218	=218	=218	=218	=218	=218	=218	=218	=218	=218
.	.	.	.	.	.	.	8qqG/	.	8qqG/	.
8F#X\|L	.	.	2.ryy	.	8f#X'/L	.	2F#X\	-cum	2F#X\	-am
8E-X\|J	.	.	.	.	8e-X'/	.	.	.	.	.
8D/|L	.	.	.	.	8d'/	.	.	.	.	.
8C/|	.	.	.	.	8c'/	.	.	.	.	.
8BB-/|	.	.	.	.	8B-'/	.	4r	.	4r	.
8AA/|J	.	.	.	.	8A'/J	.	.	.	.	.
=219	=219	=219	=219	=219	=219	=219	=219	=219	=219	=219
!LO:TX:t=P:problem=mixed beam	!	!LO:DY:a:t=for.	!	!	!	!	!	!	!	!
8GG/|L	.	f	2.ryy	.	8G'/L	.	8.G\L	Cae-	(8.G\L	cun-
!	!	!	!	!	!	!LO:DY:a:t=for&colon;	!	!	!	!
16G\|L	.	.	.	.	16.g/L	f	.	.	.	.
16F#X\|JJ	.	.	.	.	.	.	16F#X\Jk	.	16F#X\Jk)	.
.	.	.	.	.	32f#X/JJk	.	.	.	.	.
8G\|L	.	.	.	.	8g/L	.	8.G\L	.	(8.G\L	-cta
8A\|	.	.	.	.	8a/	.	.	.	.	.
.	.	.	.	.	.	.	16A\Jk	.	16A\Jk)	.
8B-\|	.	.	.	.	8b-/	.	8.B-\L	.	(8.B-\L	Pec-
8c\|J	.	.	.	.	8cc/J	.	.	.	.	.
.	.	.	.	.	.	.	16c\Jk	.	16c\Jk)	.
=220	=220	=220	=220	=220	=220	=220	=220	=220	=220	=220
4d\|	.	.	2.ryy	.	4dd\	.	4d\	[[-li-]]	4d\	-ca-
4D/|	.	.	.	.	4d/	.	8D/	-li-	4D/	-ta
.	.	.	.	.	.	.	8D/	-cum	.	.
4r	.	.	.	.	4r	.	4r	.	4r	.
!LO:LB:g=original	!	!	!	!	!LO:LB:g=original	!	!LO:LB:g=original	!	!LO:LB:g=original	!
=221	=221	=221	=221	=221	=221	=221	=221	=221	=221	=221
8C/L	3_	.	2.ryy	.	8e-/L	.	2.E-\	Sal-	2.E-\	de-
8C/	.	.	.	.	8e-/	.	.	.	.	.
8C/	.	.	.	.	8e-/	.	.	.	.	.
8C/	.	.	.	.	8e-/	.	.	.	.	.
8C/	.	.	.	.	8e-/	.	.	.	.	.
8C/J	X	.	.	.	8e-/J	.	.	.	.	.
=222	=222	=222	=222	=222	=222	=222	=222	=222	=222	=222
*tremolo	*	*	*	*	*tremolo	*	*	*	*	*
8C/L	#4 2	.	2.ryy	.	8f#X/L	.	2.F#X\	-ve	2.F#X\	.
8C/	.	.	.	.	8f#X/	.	.	.	.	.
8C/	.	.	.	.	8f#X/	.	.	.	.	.
8C/	.	.	.	.	8f#X/	.	.	.	.	.
8C/	.	.	.	.	8f#X/	.	.	.	.	.
8C/J	.	.	.	.	8f#X/J	.	.	.	.	.
=223	=223	=223	=223	=223	=223	=223	=223	=223	=223	=223
*	*	*	*	*	*	*	*	*ij	*	*
8C/L	7 6_ 4_ 2_	.	2.ryy	.	8a/L	.	2.A\	Sal-	2.A\	.
8C/	.	.	.	.	8a/	.	.	.	.	.
8C/	.	.	.	.	8a/	.	.	.	.	.
8C/	.	.	.	.	8a/	.	.	.	.	.
8C/	.	.	.	.	8a/	.	.	.	.	.
8C/J	.	.	.	.	8a/J	.	.	.	.	.
=224	=224	=224	=224	=224	=224	=224	=224	=224	=224	=224
8C/L	8 x x x	.	2.ryy	.	8cc\L	.	2.c\	-ve	2.c\	.
8C/	.	.	.	.	8cc\	.	.	.	.	.
8C/	.	.	.	.	8cc\	.	.	.	.	.
8C/	.	.	.	.	8cc\	.	.	.	.	.
8C/	.	.	.	.	8cc\	.	.	.	.	.
8C/J	X X X X	.	.	.	8cc\J	.	.	.	.	.
*Xtremolo	*	*	*	*	*Xtremolo	*	*	*Xij	*	*
=225	=225	=225	=225	=225	=225	=225	=225	=225	=225	=225
4BB-/	.	.	2.ryy	.	12dd\L	.	8d\L	Ma-	8d\L	-fle-
.	.	.	.	.	12b-\	.	.	.	.	.
.	.	.	.	.	.	.	16B-\L	.	(16B-\L	.
.	.	.	.	.	12g\J	.	.	.	.	.
.	.	.	.	.	.	.	16G\JJ	.	16G\JJ)	.
4D\	5 4	.	.	.	2at/	.	2A\	-ri-	2At\	.
4DD/	x #	.	.	.	.	.	.	.	.	.
=226	=226	=226	=226	=226	=226	=226	=226	=226	=226	=226
4GG/	.	.	2.ryy	.	4g/	.	4G\	-a	4G\	-re
8r	.	.	.	.	8r	.	4r	.	4r	.
!	!	!	!	!	!	!LO:DY:a:t=for.	!	!	!	!
8E-X\|L	.	.	.	.	8e-/L	f	.	.	.	.
8D\|	.	.	.	.	8d/	.	4r	.	4r	.
8C#X\|J	.	.	.	.	8c#X/J	.	.	.	.	.
=227	=227	=227	=227	=227	=227	=227	=227	=227	=227	=227
4G\|	.	.	2.ryy	.	4g/	.	4G\	Sal-	4G\	et
8r	.	.	.	.	8r	.	4G\	-ve	4r	.
8E-\|L	.	.	.	.	8e-/L	.	.	.	.	.
8D\|	.	.	.	.	8d/	.	4r	.	4r	.
8C#X\|J	.	.	.	.	8c#X/J	.	.	.	.	.
!	!	!	!	!	!	!	!LO:LB:g=original	!	!	!
=228	=228	=228	=228	=228	=228	=228	=228	=228	=228	=228
2.D;\	.	.	2.ryy	.	4d/	.	4D;\	Ma-	4D;\	de-
.	.	.	.	.	4r	.	2A\	-ri-	2At\	-le-
.	.	.	.	.	4r	.	.	.	.	.
=229	=229	=229	=229	=229	=229	=229	=229	=229	=229	=229
4GG/	.	.	2.ryy	.	2.r;	.	4G\	-a	4G\	-re.
4r	.	.	.	.	.	.	4r	.	4r	.
!LO:TX:b:i:t=Aria da Capo	!	!	!	!	!LO:TX:b:i:t=da \nCapo. \nAria.	!	!LO:TX:b:i:t=Da Capo.	!	!LO:TX:b:i:t=da Capo.	!
4r	.	.	.	.	.	.	4r	.	4r	.
==;;	==	==	==	==	==	==	==	==	==	==
*-	*-	*-	*-	*-	*-	*-	*-	*-	*-	*-
!!!system-decoration: <s1><s2>[(s3,s4)]<s5>
!!!RDF**kern: < = below
!!!RDF**kern: | = vertical stroke
!!!ENC: Marta Chmielewska
!!!END: 2020-07-01
!!!ENC: Marta Lawrence
!!!END: 2022-01-31
!!!YEC: Copyright 2022 Narodowy Instytut Fryderyka Chopina (https://polishscores.org)
!!!YEM: License CC-BY-4.0 (https://creativecommons.org/licenses/by/4.0)
